;FLAVOR:Marlin
;TIME:1917
;Filament used: 0.477387m
;Layer height: 0.1
;MINX:60.971
;MINY:67.558
;MINZ:0.16
;MAXX:139.026
;MAXY:145.315
;MAXZ:0.96
;TARGET_MACHINE.NAME:Blocks One MKII
;Generated with Cura_SteamEngine 5.6.0
M140 S60
M105
M190 S60
M104 S200
M105
M109 S200
M82 ;absolute extrusion mode
G21
G90 ;absolute positioning
M82 ;set extruder to absolute mode
M107 ;start with the fan off
G28 X0 Y0  ;move X/Y to min endstops
G28 Z0 ;move Z to min endstops
G29
G1 X-14 Y0 F6000
G1 Z0.1
G92 E0 ;zero the extruded length
G1 F2000 E10 ;extrude 10mm of feed stock
G92 E0 ;zero the extruded length again
G1 Z0.2 F6000
G1 F6000
M117 Printing...

G92 E0
G92 E0
G1 F3000 E-6.5
;LAYER_COUNT:9
;LAYER:0
M107
G0 F6000 X72.591 Y71.343 Z0.16
;TYPE:SKIRT
G1 F1200 E0
G1 X73.312 Y70.68 E0.02606
G1 X74.226 Y69.985 E0.05661
G1 X74.598 Y69.733 E0.06857
G1 X75.428 Y69.226 E0.09445
G1 X76.236 Y68.822 E0.11849
G1 X77.354 Y68.39 E0.15038
G1 X77.672 Y68.287 E0.15927
G1 X78.898 Y67.968 E0.19298
G1 X79.257 Y67.897 E0.20272
G1 X80.219 Y67.751 E0.22861
G1 X81.15 Y67.69 E0.25343
G1 X81.653 Y67.68 E0.26682
G1 X82.556 Y67.701 E0.29085
G1 X83.21 Y67.762 E0.30833
G1 X84.673 Y67.943 E0.34755
G1 X87.31 Y68.235 E0.41815
G1 X89.828 Y68.442 E0.48537
G1 X92.288 Y68.573 E0.55092
G1 X94.847 Y68.638 E0.61903
G1 X97.344 Y68.629 E0.68548
G1 X99.867 Y68.551 E0.75264
G1 X102.389 Y68.4 E0.81987
G1 X104.851 Y68.183 E0.88563
G1 X108.622 Y67.718 E0.98673
G1 X109.005 Y67.663 E0.99702
G1 X109.974 Y67.568 E1.02293
G1 X110.949 Y67.558 E1.04887
G1 X111.907 Y67.633 E1.07444
G1 X112.53 Y67.727 E1.09121
G1 X113.262 Y67.863 E1.11102
G1 X113.856 Y67.989 E1.12717
G1 X114.652 Y68.183 E1.14897
G1 X116.768 Y68.675 E1.20678
G1 X119.226 Y69.182 E1.27356
G1 X121.677 Y69.615 E1.33979
G1 X122.889 Y69.791 E1.37237
G1 X123.072 Y69.825 E1.37733
G1 X124.542 Y70.039 E1.41685
G1 X125.158 Y70.146 E1.43349
G1 X126.921 Y70.492 E1.48129
G1 X127.435 Y70.607 E1.49531
G1 X127.932 Y70.733 E1.50895
G1 X128.777 Y70.969 E1.53229
G1 X129.736 Y71.272 E1.55905
G1 X130.274 Y71.465 E1.57426
G1 X131.158 Y71.828 E1.59969
G1 X131.598 Y72.032 E1.6126
G1 X132.576 Y72.549 E1.64203
G1 X132.813 Y72.691 E1.64938
G1 X133.54 Y73.166 E1.67249
G1 X133.785 Y73.342 E1.68052
G1 X134.549 Y73.941 E1.70635
G1 X135.16 Y74.508 E1.72853
G1 X135.43 Y74.779 E1.73871
G1 X136.067 Y75.478 E1.76387
G1 X136.874 Y76.573 E1.80006
G1 X137.015 Y76.795 E1.80706
G1 X137.669 Y77.967 E1.84277
G1 X137.769 Y78.181 E1.84906
G1 X138.148 Y79.078 E1.87497
G1 X138.426 Y79.937 E1.89899
G1 X138.669 Y81.02 E1.92852
G1 X138.713 Y81.274 E1.93538
G1 X138.828 Y82.169 E1.95939
G1 X138.925 Y83.432 E1.9931
G1 X138.996 Y85.318 E2.04332
G1 X139.026 Y87.503 E2.10146
G1 X139.023 Y90.042 E2.16902
G1 X138.998 Y91.864 E2.2175
G1 X138.962 Y92.699 E2.23974
G1 X138.895 Y93.638 E2.26479
G1 X138.784 Y94.57 E2.28976
G1 X138.618 Y95.458 E2.3138
G1 X138.471 Y96.027 E2.32944
G1 X137.528 Y99.313 E2.4204
G1 X136.908 Y101.73 E2.4868
G1 X136.335 Y104.261 E2.55585
G1 X136.045 Y105.69 E2.59464
G1 X135.685 Y107.535 E2.64466
G1 X135.563 Y108.083 E2.6596
G1 X135.344 Y108.961 E2.68368
G1 X134.771 Y111.459 E2.75187
G1 X134.274 Y113.936 E2.81909
G1 X133.849 Y116.419 E2.88612
G1 X133.497 Y118.908 E2.95301
G1 X133.22 Y121.35 E3.0184
G1 X132.949 Y124.73 E3.10862
G1 X132.868 Y125.573 E3.13116
G1 X132.73 Y126.536 E3.15704
G1 X132.53 Y127.399 E3.18062
G1 X131.87 Y129.772 E3.24615
G1 X131.251 Y132.249 E3.31409
G1 X130.784 Y134.352 E3.37141
G1 X130.516 Y135.648 E3.40662
G1 X130.189 Y136.867 E3.4402
G1 X130.062 Y137.249 E3.45092
G1 X129.711 Y138.156 E3.47679
G1 X129.282 Y139.031 E3.50272
G1 X128.816 Y139.804 E3.52674
G1 X128.222 Y140.62 E3.55359
G1 X127.554 Y141.379 E3.5805
G1 X126.839 Y142.057 E3.60672
G1 X126.616 Y142.25 E3.61456
G1 X125.88 Y142.831 E3.63951
G1 X125.042 Y143.381 E3.66618
G1 X124.381 Y143.741 E3.68621
G1 X123.98 Y143.942 E3.69815
G1 X123.09 Y144.338 E3.72407
G1 X122.17 Y144.653 E3.74994
G1 X121.3 Y144.871 E3.77381
G1 X120.938 Y144.945 E3.78364
G1 X119.789 Y145.116 E3.81455
G1 X119.34 Y145.157 E3.82654
G1 X118.355 Y145.198 E3.85278
G1 X117.97 Y145.195 E3.86302
G1 X116.676 Y145.111 E3.89752
G1 X115.396 Y144.95 E3.93185
G1 X112.821 Y144.662 E4.00079
G1 X110.3 Y144.45 E4.06811
G1 X107.78 Y144.313 E4.13526
G1 X105.284 Y144.247 E4.2017
G1 X102.789 Y144.252 E4.26808
G1 X100.228 Y144.328 E4.33626
G1 X97.724 Y144.474 E4.403
G1 X95.225 Y144.691 E4.46974
G1 X92.693 Y144.983 E4.53756
G1 X90.949 Y145.224 E4.58441
G1 X89.978 Y145.313 E4.61035
G1 X89.014 Y145.315 E4.636
G1 X88.235 Y145.257 E4.65679
G1 X87.129 Y145.098 E4.68652
G1 X86.046 Y144.874 E4.71594
G1 X84.148 Y144.412 E4.76792
G1 X81.66 Y143.87 E4.83567
G1 X79.211 Y143.409 E4.90198
G1 X76.662 Y143.005 E4.97065
G1 X75.964 Y142.909 E4.9894
G1 X74.58 Y142.693 E5.02667
G1 X73.829 Y142.553 E5.047
G1 X72.487 Y142.255 E5.08358
G1 X71.998 Y142.131 E5.097
G1 X71.128 Y141.89 E5.12102
G1 X70.42 Y141.669 E5.14075
G1 X69.86 Y141.47 E5.15657
G1 X69.343 Y141.268 E5.17134
G1 X68.541 Y140.919 E5.19461
G1 X67.804 Y140.544 E5.21661
G1 X67.432 Y140.336 E5.22795
G1 X66.636 Y139.843 E5.25287
G1 X65.9 Y139.299 E5.27722
G1 X65.534 Y139.002 E5.28976
G1 X64.857 Y138.403 E5.31381
G1 X64.142 Y137.648 E5.34148
G1 X63.573 Y136.939 E5.36567
G1 X63.011 Y136.144 E5.39158
G1 X62.525 Y135.309 E5.41728
G1 X62.148 Y134.524 E5.44045
G1 X61.786 Y133.619 E5.46639
G1 X61.504 Y132.672 E5.49268
G1 X61.251 Y131.318 E5.52933
G1 X61.173 Y130.67 E5.5467
G1 X61.115 Y130.033 E5.56372
G1 X61.071 Y129.302 E5.5832
G1 X61.003 Y127.539 E5.63015
G1 X60.979 Y126.09 E5.66871
G1 X60.971 Y123.901 E5.72695
G1 X60.996 Y121.113 E5.80114
G1 X61.064 Y119.695 E5.83891
G1 X61.149 Y118.791 E5.86307
G1 X61.193 Y118.463 E5.87188
G1 X61.427 Y117.263 E5.90441
G1 X61.636 Y116.444 E5.9269
G1 X62.222 Y113.913 E5.99603
G1 X62.717 Y111.472 E6.0623
G1 X63.148 Y108.978 E6.12964
G1 X63.503 Y106.514 E6.19588
G1 X63.792 Y104.01 E6.26295
G1 X64.016 Y101.443 E6.33151
G1 X64.069 Y100.578 E6.35457
G1 X64.113 Y100.057 E6.36849
G1 X64.18 Y99.462 E6.38442
G1 X64.253 Y98.947 E6.39826
G1 X64.429 Y98.005 E6.42376
G1 X64.57 Y97.462 E6.43868
G1 X65.497 Y94.239 E6.52792
G1 X66.116 Y91.824 E6.59425
G1 X66.687 Y89.306 E6.66295
G1 X67.062 Y87.432 E6.71381
G1 X67.264 Y86.366 E6.74268
G1 X67.411 Y85.706 E6.76067
G1 X67.557 Y85.147 E6.77604
G1 X68.13 Y83.106 E6.83245
G1 X68.75 Y80.626 E6.90047
G1 X69.317 Y78.067 E6.97021
G1 X69.528 Y77.06 E6.99758
G1 X69.782 Y76.084 E7.02442
G1 X70.242 Y74.858 E7.05926
G1 X70.388 Y74.534 E7.06872
G1 X70.831 Y73.667 E7.09462
G1 X71.347 Y72.842 E7.12051
G1 X71.935 Y72.065 E7.14644
G1 X72.591 Y71.343 E7.1724
G0 F6000 X72.862 Y71.637
G1 F1200 X73.554 Y70.998 E7.19746
G1 X74.45 Y70.316 E7.22742
G1 X74.807 Y70.074 E7.2389
G1 X75.607 Y69.584 E7.26386
G1 X76.415 Y69.18 E7.2879
G1 X77.477 Y68.771 E7.31818
G1 X77.795 Y68.668 E7.32707
G1 X78.976 Y68.36 E7.35955
G1 X79.318 Y68.292 E7.36883
G1 X80.245 Y68.15 E7.39378
G1 X81.158 Y68.09 E7.41812
G1 X81.644 Y68.08 E7.43106
G1 X82.547 Y68.101 E7.45509
G1 X83.161 Y68.159 E7.4715
G1 X84.629 Y68.341 E7.51086
G1 X87.269 Y68.633 E7.58154
G1 X89.795 Y68.84 E7.64897
G1 X92.278 Y68.973 E7.71514
G1 X94.838 Y69.038 E7.78327
G1 X97.356 Y69.029 E7.85027
G1 X99.879 Y68.951 E7.91744
G1 X102.413 Y68.799 E7.98498
G1 X104.9 Y68.58 E8.05142
G1 X108.678 Y68.114 E8.1527
G1 X109.045 Y68.061 E8.16257
G1 X109.979 Y67.968 E8.18754
G1 X110.918 Y67.957 E8.21253
G1 X111.847 Y68.029 E8.23732
G1 X112.47 Y68.123 E8.25409
G1 X113.179 Y68.254 E8.27327
G1 X113.761 Y68.378 E8.28911
G1 X114.561 Y68.573 E8.31102
G1 X116.677 Y69.065 E8.36882
G1 X119.147 Y69.574 E8.43592
G1 X121.611 Y70.01 E8.5025
G1 X122.816 Y70.184 E8.5349
G1 X123.014 Y70.221 E8.54026
G1 X124.473 Y70.433 E8.57949
G1 X125.081 Y70.539 E8.59591
G1 X126.833 Y70.882 E8.64341
G1 X127.337 Y70.995 E8.65716
G1 X127.825 Y71.118 E8.67055
G1 X128.657 Y71.35 E8.69353
G1 X129.601 Y71.648 E8.71987
G1 X130.122 Y71.835 E8.7346
G1 X130.99 Y72.191 E8.75956
G1 X131.411 Y72.386 E8.77191
G1 X132.371 Y72.893 E8.80079
G1 X132.594 Y73.026 E8.8077
G1 X133.307 Y73.491 E8.83035
G1 X133.539 Y73.657 E8.83794
G1 X134.277 Y74.234 E8.86287
G1 X134.877 Y74.79 E8.88463
G1 X135.134 Y75.048 E8.89432
G1 X135.771 Y75.747 E8.91949
G1 X136.537 Y76.788 E8.95388
G1 X136.666 Y76.99 E8.96025
G1 X137.307 Y78.138 E8.99524
G1 X137.401 Y78.337 E9.0011
G1 X137.767 Y79.201 E9.02606
G1 X138.045 Y80.06 E9.05009
G1 X138.275 Y81.088 E9.07812
G1 X138.316 Y81.325 E9.08452
G1 X138.429 Y82.203 E9.10807
G1 X138.494 Y82.967 E9.12847
G1 X138.525 Y83.447 E9.14127
G1 X138.596 Y85.324 E9.19125
G1 X138.626 Y87.503 E9.24923
G1 X138.623 Y90.036 E9.31663
G1 X138.598 Y91.847 E9.36482
G1 X138.563 Y92.671 E9.38677
G1 X138.498 Y93.591 E9.41131
G1 X138.391 Y94.496 E9.43556
G1 X138.225 Y95.384 E9.4596
G1 X138.087 Y95.917 E9.47424
G1 X137.144 Y99.203 E9.56521
G1 X136.518 Y101.642 E9.63221
G1 X135.945 Y104.173 E9.70126
G1 X135.653 Y105.61 E9.74028
G1 X135.295 Y107.448 E9.7901
G1 X135.175 Y107.986 E9.80477
G1 X134.956 Y108.864 E9.82884
G1 X134.381 Y111.37 E9.89726
G1 X133.882 Y113.857 E9.96475
G1 X133.455 Y116.351 E10.03208
G1 X133.101 Y118.852 E10.09929
G1 X132.821 Y121.318 E10.16532
G1 X132.551 Y124.692 E10.25539
G1 X132.472 Y125.517 E10.27744
G1 X132.34 Y126.446 E10.30241
G1 X132.14 Y127.309 E10.32598
G1 X131.482 Y129.675 E10.39132
G1 X130.863 Y132.152 E10.45926
G1 X130.392 Y134.271 E10.51702
G1 X130.124 Y135.567 E10.55223
G1 X129.803 Y136.763 E10.58518
G1 X129.689 Y137.105 E10.59477
G1 X129.352 Y137.98 E10.61972
G1 X128.939 Y138.824 E10.64472
G1 X128.473 Y139.597 E10.66874
G1 X127.899 Y140.384 E10.69466
G1 X127.278 Y141.089 E10.71966
G1 X126.577 Y141.755 E10.74538
G1 X126.368 Y141.936 E10.75274
G1 X125.632 Y142.517 E10.77769
G1 X124.85 Y143.03 E10.80258
G1 X124.201 Y143.384 E10.82225
G1 X123.817 Y143.577 E10.83368
G1 X122.96 Y143.96 E10.85866
G1 X122.073 Y144.265 E10.88362
G1 X121.22 Y144.479 E10.90702
G1 X120.879 Y144.549 E10.91628
G1 X119.73 Y144.72 E10.94719
G1 X119.323 Y144.757 E10.95806
G1 X118.357 Y144.798 E10.98379
G1 X117.996 Y144.796 E10.99339
G1 X116.726 Y144.714 E11.02726
G1 X115.44 Y144.552 E11.06175
G1 X112.862 Y144.264 E11.13077
G1 X110.333 Y144.052 E11.1983
G1 X107.791 Y143.913 E11.26603
G1 X105.294 Y143.847 E11.3325
G1 X102.777 Y143.852 E11.39947
G1 X100.216 Y143.928 E11.46764
G1 X97.701 Y144.075 E11.53468
G1 X95.181 Y144.294 E11.60198
G1 X92.638 Y144.587 E11.6701
G1 X90.912 Y144.826 E11.71646
G1 X89.977 Y144.913 E11.74145
G1 X89.043 Y144.916 E11.7663
G1 X88.292 Y144.861 E11.78633
G1 X87.21 Y144.706 E11.81542
G1 X86.141 Y144.485 E11.84446
G1 X84.243 Y144.023 E11.89644
G1 X81.745 Y143.479 E11.96446
G1 X79.274 Y143.014 E12.03137
G1 X76.725 Y142.61 E12.10004
G1 X76.026 Y142.514 E12.11881
G1 X74.653 Y142.3 E12.15579
G1 X73.916 Y142.163 E12.17573
G1 X72.585 Y141.867 E12.21201
G1 X72.105 Y141.746 E12.22518
G1 X71.247 Y141.508 E12.24888
G1 X70.554 Y141.292 E12.26819
G1 X70.005 Y141.097 E12.28369
G1 X69.502 Y140.901 E12.29806
G1 X68.722 Y140.562 E12.32069
G1 X67.999 Y140.195 E12.34226
G1 X67.643 Y139.996 E12.35311
G1 X66.847 Y139.503 E12.37803
G1 X66.152 Y138.988 E12.40104
G1 X65.799 Y138.702 E12.41313
G1 X65.122 Y138.103 E12.43718
G1 X64.454 Y137.398 E12.46302
G1 X63.899 Y136.707 E12.48661
G1 X63.356 Y135.942 E12.51157
G1 X62.885 Y135.135 E12.53643
G1 X62.519 Y134.375 E12.55888
G1 X62.169 Y133.504 E12.58385
G1 X61.897 Y132.598 E12.60902
G1 X61.648 Y131.27 E12.64497
G1 X61.571 Y130.634 E12.66202
G1 X61.514 Y130.009 E12.67872
G1 X61.471 Y129.287 E12.69796
G1 X61.403 Y127.532 E12.7447
G1 X61.379 Y126.089 E12.7831
G1 X61.371 Y123.905 E12.84121
G1 X61.396 Y121.132 E12.915
G1 X61.464 Y119.714 E12.95277
G1 X61.545 Y118.844 E12.97602
G1 X61.586 Y118.539 E12.98421
G1 X61.815 Y117.362 E13.01611
G1 X62.024 Y116.543 E13.0386
G1 X62.612 Y114.003 E13.10798
G1 X63.109 Y111.551 E13.17455
G1 X63.542 Y109.046 E13.24219
G1 X63.899 Y106.571 E13.30872
G1 X64.189 Y104.056 E13.37609
G1 X64.414 Y101.478 E13.44494
G1 X64.468 Y100.611 E13.46806
G1 X64.51 Y100.102 E13.48165
G1 X64.576 Y99.518 E13.49729
G1 X64.646 Y99.02 E13.51067
G1 X64.816 Y98.105 E13.53543
G1 X64.954 Y97.573 E13.55005
G1 X65.881 Y94.35 E13.63929
G1 X66.506 Y91.912 E13.70626
G1 X67.077 Y89.394 E13.77496
G1 X67.454 Y87.51 E13.82608
G1 X67.654 Y86.453 E13.8547
G1 X67.798 Y85.807 E13.87231
G1 X67.942 Y85.255 E13.88749
G1 X68.515 Y83.214 E13.9439
G1 X69.141 Y80.713 E14.0125
G1 X69.708 Y78.154 E14.08224
G1 X69.92 Y77.142 E14.10975
G1 X70.157 Y76.225 E14.13496
G1 X70.617 Y74.999 E14.1698
G1 X70.745 Y74.715 E14.17809
G1 X71.17 Y73.879 E14.20304
G1 X71.666 Y73.083 E14.228
G1 X72.232 Y72.333 E14.253
G1 X72.862 Y71.637 E14.27798
G0 F6000 X73.134 Y71.93
G1 F1200 X73.796 Y71.316 E14.302
G1 X74.675 Y70.647 E14.33139
G1 X75.017 Y70.415 E14.34239
G1 X75.786 Y69.942 E14.36641
G1 X76.594 Y69.538 E14.39045
G1 X77.6 Y69.152 E14.41912
G1 X77.918 Y69.049 E14.42801
G1 X79.055 Y68.752 E14.45928
G1 X79.379 Y68.687 E14.46807
G1 X80.271 Y68.549 E14.49209
G1 X81.167 Y68.49 E14.51598
G1 X81.635 Y68.48 E14.52844
G1 X82.538 Y68.501 E14.55247
G1 X83.112 Y68.556 E14.56782
G1 X84.585 Y68.739 E14.60731
G1 X87.229 Y69.031 E14.67809
G1 X89.762 Y69.238 E14.74571
G1 X92.268 Y69.373 E14.81249
G1 X94.829 Y69.438 E14.88065
G1 X97.368 Y69.429 E14.94821
G1 X99.891 Y69.351 E15.01538
G1 X102.437 Y69.198 E15.08324
G1 X104.949 Y68.977 E15.15034
G1 X108.736 Y68.51 E15.25187
G1 X109.085 Y68.459 E15.26125
G1 X109.984 Y68.368 E15.2853
G1 X110.887 Y68.356 E15.30933
G1 X111.787 Y68.425 E15.33334
G1 X112.41 Y68.519 E15.35011
G1 X113.095 Y68.645 E15.36864
G1 X113.666 Y68.767 E15.38418
G1 X114.47 Y68.963 E15.4062
G1 X116.586 Y69.455 E15.464
G1 X119.068 Y69.966 E15.53143
G1 X121.545 Y70.405 E15.59836
G1 X122.743 Y70.577 E15.63057
G1 X122.957 Y70.617 E15.63636
G1 X124.404 Y70.827 E15.67526
G1 X125.004 Y70.932 E15.69147
G1 X126.745 Y71.272 E15.73867
G1 X127.24 Y71.383 E15.75217
G1 X127.718 Y71.503 E15.76528
G1 X128.536 Y71.731 E15.78788
G1 X129.466 Y72.025 E15.81383
G1 X129.97 Y72.205 E15.82807
G1 X130.822 Y72.554 E15.85257
G1 X131.224 Y72.74 E15.86436
G1 X132.166 Y73.237 E15.8927
G1 X132.389 Y73.37 E15.8996
G1 X133.075 Y73.817 E15.92139
G1 X133.293 Y73.972 E15.92851
G1 X134.005 Y74.527 E15.95253
G1 X134.594 Y75.073 E15.9739
G1 X134.839 Y75.318 E15.98312
G1 X135.449 Y75.984 E16.00715
G1 X136.201 Y77.005 E16.04089
G1 X136.317 Y77.185 E16.04659
G1 X136.946 Y78.311 E16.0809
G1 X137.033 Y78.493 E16.08627
G1 X137.386 Y79.324 E16.1103
G1 X137.664 Y80.183 E16.13432
G1 X137.881 Y81.156 E16.16085
G1 X137.919 Y81.376 E16.16679
G1 X138.03 Y82.237 E16.18988
G1 X138.095 Y82.992 E16.21005
G1 X138.125 Y83.462 E16.22258
G1 X138.196 Y85.33 E16.27232
G1 X138.226 Y87.503 E16.33014
G1 X138.223 Y90.03 E16.39738
G1 X138.198 Y91.83 E16.44528
G1 X138.164 Y92.643 E16.46693
G1 X138.101 Y93.544 E16.49097
G1 X137.998 Y94.422 E16.51449
G1 X137.832 Y95.31 E16.53853
G1 X137.703 Y95.807 E16.55219
G1 X136.76 Y99.093 E16.64315
G1 X136.128 Y101.554 E16.71076
G1 X135.555 Y104.085 E16.77981
G1 X135.261 Y105.53 E16.81904
G1 X134.902 Y107.371 E16.86895
G1 X134.787 Y107.889 E16.88307
G1 X134.568 Y108.767 E16.90715
G1 X133.991 Y111.28 E16.97576
G1 X133.49 Y113.778 E17.04355
G1 X133.061 Y116.283 E17.11117
G1 X132.705 Y118.796 E17.1787
G1 X132.422 Y121.286 E17.24538
G1 X132.153 Y124.654 E17.33529
G1 X132.076 Y125.461 E17.35686
G1 X131.95 Y126.356 E17.3809
G1 X131.75 Y127.219 E17.40448
G1 X131.094 Y129.578 E17.46963
G1 X130.475 Y132.055 E17.53756
G1 X130 Y134.19 E17.59576
G1 X129.732 Y135.486 E17.63097
G1 X129.423 Y136.637 E17.66268
G1 X129.315 Y136.962 E17.6718
G1 X128.992 Y137.805 E17.69582
G1 X128.596 Y138.617 E17.71985
G1 X128.13 Y139.39 E17.74387
G1 X127.598 Y140.12 E17.76791
G1 X127.002 Y140.799 E17.79195
G1 X126.315 Y141.453 E17.81718
G1 X126.12 Y141.622 E17.82405
G1 X125.412 Y142.183 E17.84809
G1 X124.658 Y142.679 E17.8721
G1 X124.021 Y143.027 E17.89141
G1 X123.653 Y143.212 E17.90237
G1 X122.829 Y143.582 E17.92641
G1 X121.976 Y143.877 E17.95042
G1 X121.139 Y144.087 E17.97338
G1 X120.82 Y144.153 E17.98205
G1 X119.671 Y144.324 E18.01296
G1 X119.306 Y144.357 E18.02271
G1 X118.358 Y144.398 E18.04796
G1 X118.022 Y144.397 E18.0569
