;FLAVOR:Marlin
;TIME:471
;Filament used: 0.337326m
;Layer height: 0.3
;MINX:89.945
;MINY:96.7
;MINZ:0.3
;MAXX:110.055
;MAXY:113.3
;MAXZ:18
;Generated with Cura_SteamEngine 4.6.2
M140 S60
M105
M190 S60
M104 S200
M105
M109 S200
M82 ;absolute extrusion mode
G21; metric values
G90 ;absolute positioning
M82 ;set extruder to absolute mode
M107 ;start with the fan off
G28 X0 Y0 ;move X/Y to min endstops
G28 Z0 ;move Z to min endstops
G29
G1 X-14 Y0 F6000
G1 Z0.1
G92 E0 ;zero the extruded length
G1 F2000 E10 ;extrude 10mm of feed stock
G92 E0 ;zero the extruded length again
G1 Z0.2 F6000
G1 F6000
M117 Printing...
G92 E0
G92 E0
;LAYER_COUNT:60
;LAYER:0
M107
G0 F3600 X105.794 Y98.357 Z0.3
;TYPE:SKIRT
G1 F900 X106.284 Y98.483 E0.02524
G1 X106.748 Y98.685 E0.05049
G1 X107.174 Y98.957 E0.07571
G1 X107.552 Y99.292 E0.1009
G1 X107.872 Y99.683 E0.12611
G1 X108.127 Y100.12 E0.15135
G1 X108.31 Y100.591 E0.17656
G1 X108.417 Y101.085 E0.20178
G1 X108.453 Y101.743 E0.23466
G1 X108.455 Y107.748 E0.53425
G1 X108.446 Y108.529 E0.57321
G1 X108.4 Y109.032 E0.59841
G1 X108.275 Y109.522 E0.62364
G1 X108.075 Y109.986 E0.64885
G1 X107.804 Y110.413 E0.67408
G1 X107.469 Y110.792 E0.69932
G1 X107.078 Y111.113 E0.72456
G1 X106.642 Y111.369 E0.74978
G1 X106.171 Y111.553 E0.77501
G1 X105.677 Y111.661 E0.80024
G1 X105.013 Y111.698 E0.83342
G1 X95.452 Y111.7 E1.31042
G1 X94.713 Y111.691 E1.34729
G1 X94.209 Y111.644 E1.37254
G1 X93.719 Y111.519 E1.39777
G1 X93.255 Y111.318 E1.423
G1 X92.829 Y111.047 E1.44819
G1 X92.45 Y110.712 E1.47342
G1 X92.129 Y110.321 E1.49866
G1 X91.874 Y109.885 E1.52386
G1 X91.69 Y109.414 E1.54909
G1 X91.583 Y108.92 E1.57431
G1 X91.546 Y108.244 E1.60808
G1 X91.545 Y101.99 E1.9201
G1 X91.557 Y101.437 E1.94769
G1 X91.608 Y100.934 E1.97292
G1 X91.738 Y100.445 E1.99816
G1 X91.944 Y99.983 E2.0234
G1 X92.219 Y99.559 E2.04861
G1 X92.558 Y99.184 E2.07383
G1 X92.952 Y98.867 E2.09906
G1 X93.391 Y98.616 E2.12429
G1 X93.864 Y98.437 E2.14952
G1 X94.359 Y98.335 E2.17473
G1 X95.336 Y98.3 E2.22351
G1 X104.593 Y98.3 E2.68534
G1 X105.291 Y98.31 E2.72017
G1 X105.794 Y98.357 E2.74537
G0 F3600 X105.831 Y97.958
G1 F900 X106.352 Y98.084 E2.77211
G1 X106.849 Y98.287 E2.7989
G1 X107.31 Y98.561 E2.82565
G1 X107.725 Y98.9 E2.85239
G1 X108.085 Y99.298 E2.87916
G1 X108.382 Y99.744 E2.90589
G1 X108.61 Y100.23 E2.93268
G1 X108.762 Y100.744 E2.95942
G1 X108.844 Y101.409 E2.99285
G1 X108.855 Y107.748 E3.3091
G1 X108.846 Y108.534 E3.34832
G1 X108.799 Y109.068 E3.37506
G1 X108.674 Y109.589 E3.40179
G1 X108.473 Y110.086 E3.42854
G1 X108.2 Y110.548 E3.45531
G1 X107.861 Y110.964 E3.48208
G1 X107.465 Y111.325 E3.50882
G1 X107.019 Y111.623 E3.53558
G1 X106.534 Y111.852 E3.56234
G1 X106.02 Y112.006 E3.58911
G1 X105.347 Y112.089 E3.62294
G1 X95.452 Y112.1 E4.1166
G1 X94.708 Y112.091 E4.15372
G1 X94.173 Y112.044 E4.18052
G1 X93.652 Y111.918 E4.20726
G1 X93.155 Y111.716 E4.23402
G1 X92.694 Y111.443 E4.26075
G1 X92.278 Y111.104 E4.28753
G1 X91.917 Y110.708 E4.31426
G1 X91.619 Y110.262 E4.34102
G1 X91.391 Y109.776 E4.3678
G1 X91.238 Y109.262 E4.39456
G1 X91.155 Y108.588 E4.42844
G1 X91.145 Y101.99 E4.75761
G1 X91.157 Y101.428 E4.78566
G1 X91.209 Y100.894 E4.81243
G1 X91.34 Y100.374 E4.83918
G1 X91.547 Y99.879 E4.86595
G1 X91.825 Y99.42 E4.89272
G1 X92.168 Y99.008 E4.91947
G1 X92.568 Y98.651 E4.94621
G1 X93.017 Y98.358 E4.97296
G1 X93.505 Y98.135 E4.99973
G1 X94.02 Y97.986 E5.02648
G1 X94.699 Y97.91 E5.06056
G1 X95.33 Y97.9 E5.09205
G1 X104.599 Y97.9 E5.55448
G1 X105.297 Y97.91 E5.58931
G1 X105.831 Y97.958 E5.61606
G0 F3600 X105.866 Y97.558
G1 F900 X106.416 Y97.685 E5.64422
G1 X106.944 Y97.889 E5.67246
G1 X107.438 Y98.164 E5.70067
G1 X107.887 Y98.507 E5.72886
G1 X108.284 Y98.909 E5.75704
G1 X108.621 Y99.364 E5.78529
G1 X108.889 Y99.861 E5.81346
G1 X109.085 Y100.391 E5.84165
G1 X109.205 Y100.944 E5.86988
G1 X109.252 Y101.72 E5.90867
G1 X109.255 Y107.748 E6.20941
G1 X109.246 Y108.539 E6.24887
G1 X109.199 Y109.102 E6.27706
G1 X109.073 Y109.653 E6.30526
G1 X108.871 Y110.181 E6.33346
G1 X108.596 Y110.675 E6.36167
G1 X108.255 Y111.126 E6.38988
G1 X107.853 Y111.524 E6.4181
G1 X107.399 Y111.861 E6.44631
G1 X106.903 Y112.131 E6.47448
G1 X106.373 Y112.328 E6.50269
G1 X105.821 Y112.449 E6.53089
G1 X105.036 Y112.497 E6.57012
G1 X95.452 Y112.5 E7.04827
G1 X94.702 Y112.491 E7.08569
G1 X94.139 Y112.443 E7.11388
G1 X93.588 Y112.317 E7.14208
G1 X93.06 Y112.115 E7.17028
G1 X92.566 Y111.84 E7.19849
G1 X92.116 Y111.498 E7.22669
G1 X91.718 Y111.096 E7.25491
G1 X91.382 Y110.642 E7.28309
G1 X91.112 Y110.145 E7.31131
G1 X90.915 Y109.615 E7.33952
G1 X90.795 Y109.063 E7.3677
G1 X90.746 Y108.266 E7.40754
G1 X90.745 Y101.99 E7.72065
G1 X90.757 Y101.418 E7.74919
G1 X90.81 Y100.856 E7.77736
G1 X90.942 Y100.306 E7.80557
G1 X91.149 Y99.78 E7.83378
G1 X91.429 Y99.289 E7.86198
G1 X91.776 Y98.842 E7.89021
G1 X92.182 Y98.449 E7.9184
G1 X92.639 Y98.116 E7.94661
G1 X93.139 Y97.852 E7.97482
G1 X93.67 Y97.66 E8.00299
G1 X94.224 Y97.546 E8.03121
G1 X95.324 Y97.501 E8.08613
G1 X104.604 Y97.5 E8.54911
G1 X105.302 Y97.51 E8.58394
G1 X105.866 Y97.558 E8.61218
G0 F3600 X105.899 Y97.159
G1 F900 X106.478 Y97.286 E8.64175
G1 X107.035 Y97.49 E8.67135
G1 X107.559 Y97.768 E8.70094
G1 X108.041 Y98.113 E8.73051
G1 X108.473 Y98.52 E8.76012
G1 X108.845 Y98.981 E8.78968
G1 X109.153 Y99.488 E8.81927
G1 X109.389 Y100.032 E8.84886
G1 X109.55 Y100.602 E8.87841
G1 X109.643 Y101.387 E8.91784
G1 X109.655 Y107.748 E9.2352
G1 X109.646 Y108.543 E9.27486
G1 X109.599 Y109.135 E9.30449
G1 X109.472 Y109.714 E9.33406
G1 X109.269 Y110.271 E9.36364
G1 X108.993 Y110.796 E9.39323
G1 X108.649 Y111.279 E9.42281
G1 X108.243 Y111.711 E9.45239
G1 X107.783 Y112.085 E9.48197
G1 X107.277 Y112.393 E9.51152
G1 X106.733 Y112.631 E9.54115
G1 X106.163 Y112.793 E9.57071
G1 X105.369 Y112.888 E9.61061
G1 X95.452 Y112.9 E10.10537
G1 X94.697 Y112.891 E10.14304
G1 X94.106 Y112.843 E10.17262
G1 X93.527 Y112.716 E10.20219
G1 X92.97 Y112.513 E10.23177
G1 X92.445 Y112.237 E10.26136
G1 X91.963 Y111.892 E10.29093
G1 X91.531 Y111.486 E10.32051
G1 X91.157 Y111.025 E10.35013
G1 X90.849 Y110.519 E10.37968
G1 X90.612 Y109.975 E10.40928
G1 X90.45 Y109.405 E10.43885
G1 X90.356 Y108.61 E10.47879
G1 X90.345 Y101.99 E10.80906
G1 X90.357 Y101.409 E10.83805
G1 X90.411 Y100.819 E10.86761
G1 X90.543 Y100.241 E10.89719
G1 X90.752 Y99.686 E10.92678
G1 X91.034 Y99.164 E10.95638
G1 X91.383 Y98.685 E10.98594
G1 X91.793 Y98.257 E11.01551
G1 X92.258 Y97.888 E11.04513
G1 X92.767 Y97.585 E11.07468
G1 X93.313 Y97.353 E11.10428
G1 X93.885 Y97.197 E11.13386
G1 X94.686 Y97.111 E11.17405
G1 X95.317 Y97.101 E11.20554
G1 X104.61 Y97.1 E11.66917
G1 X105.308 Y97.11 E11.70399
G1 X105.899 Y97.159 E11.73358
G0 F3600 X105.931 Y96.759
G1 F900 X106.537 Y96.887 E11.76448
G1 X107.122 Y97.092 E11.79541
G1 X107.675 Y97.371 E11.82631
G1 X108.188 Y97.718 E11.85721
G1 X108.652 Y98.128 E11.8881
G1 X109.059 Y98.595 E11.919
G1 X109.402 Y99.11 E11.94987
G1 X109.677 Y99.666 E11.98082
G1 X109.877 Y100.252 E12.01171
G1 X110.001 Y100.859 E12.04262
G1 X110.043 Y101.376 E12.0685
G1 X110.055 Y107.748 E12.3864
G1 X110.046 Y108.548 E12.42631
G1 X109.998 Y109.166 E12.45724
G1 X109.872 Y109.772 E12.48812
G1 X109.668 Y110.357 E12.51903
G1 X109.391 Y110.911 E12.54993
G1 X109.045 Y111.424 E12.5808
G1 X108.635 Y111.889 E12.61173
G1 X108.169 Y112.297 E12.64263
G1 X107.655 Y112.642 E12.67351
G1 X107.1 Y112.918 E12.70444
G1 X106.514 Y113.119 E12.73535
G1 X105.908 Y113.244 E12.76622
G1 X105.38 Y113.288 E12.79265
G1 X95.453 Y113.3 E13.28791
G1 X94.692 Y113.291 E13.32588
G1 X94.075 Y113.243 E13.35675
G1 X93.468 Y113.116 E13.38769
G1 X92.884 Y112.912 E13.41856
G1 X92.33 Y112.634 E13.44948
G1 X91.817 Y112.287 E13.48038
G1 X91.352 Y111.878 E13.51127
G1 X90.945 Y111.411 E13.54218
G1 X90.6 Y110.897 E13.57306
G1 X90.325 Y110.342 E13.60397
G1 X90.124 Y109.756 E13.63487
G1 X89.999 Y109.149 E13.66579
G1 X89.956 Y108.621 E13.69222
G1 X89.945 Y101.99 E14.02304
G1 X89.957 Y101.4 E14.05248
G1 X90.011 Y100.783 E14.08338
G1 X90.144 Y100.178 E14.11429
G1 X90.354 Y99.595 E14.1452
G1 X90.638 Y99.045 E14.17609
G1 X90.989 Y98.535 E14.20697
G1 X91.404 Y98.075 E14.23788
G1 X91.874 Y97.672 E14.26877
G1 X92.392 Y97.332 E14.29968
G1 X92.95 Y97.063 E14.33059
G1 X93.537 Y96.867 E14.36146
G1 X94.145 Y96.749 E14.39236
G1 X94.68 Y96.711 E14.41912
G1 X95.311 Y96.701 E14.45061
G1 X104.616 Y96.7 E14.91483
G1 X105.314 Y96.71 E14.94966
G1 X105.931 Y96.759 E14.98054
;MESH:botao_osc6.stl
G0 F3600 X104.64 Y100.835
G0 X104.64 Y102.114
G0 X104.455 Y107.8
G0 X104.455 Y107.9
;TYPE:WALL-INNER
G1 F900 X95.345 Y107.9 E15.43504
G1 X95.345 Y102.1 E15.7244
G1 X104.654 Y102.1 E16.18883
G1 X104.655 Y107.7 E16.46822
G1 X104.655 Y107.9 E16.47819
G1 X104.455 Y107.9 E16.48465
G0 F3600 X104.855 Y108.3
;TYPE:WALL-OUTER
G1 F900 X94.945 Y108.3 E16.97907
G1 X94.945 Y101.7 E17.30834
G1 X105.054 Y101.7 E17.81268
G1 X105.055 Y108.1 E18.13198
G1 X105.055 Y108.3 E18.14196
G1 X104.855 Y108.3 E18.14842
G0 F3600 X104.655 Y108.3
G0 X104.265 Y107.51
;TYPE:SKIN
G1 F900 X95.735 Y107.51 E18.57398
G1 X95.735 Y102.49 E18.82443
G1 X104.264 Y102.49 E19.24994
G1 X104.265 Y107.51 E19.50039
G0 F3600 X104.083 Y102.952
G1 F900 X103.801 Y102.67 E19.52029
G0 F3600 X103.236 Y102.67
G1 F900 X104.083 Y103.518 E19.58009
G0 F3600 X104.083 Y104.083
G1 F900 X102.67 Y102.67 E19.67978
G0 F3600 X102.104 Y102.67
G1 F900 X104.083 Y104.649 E19.81941
G0 F3600 X104.084 Y105.216
G1 F900 X101.539 Y102.67 E19.99901
G0 F3600 X100.973 Y102.67
G1 F900 X104.084 Y105.781 E20.21851
G0 F3600 X104.084 Y106.347
G1 F900 X100.407 Y102.67 E20.47794
G0 F3600 X99.841 Y102.669
G1 F900 X104.084 Y106.913 E20.77734
G0 F3600 X103.934 Y107.328
G1 F900 X99.275 Y102.669 E21.10606
G0 F3600 X98.709 Y102.669
G1 F900 X103.369 Y107.328 E21.43481
G0 F3600 X102.803 Y107.328
G1 F900 X98.144 Y102.669 E21.76353
G0 F3600 X97.578 Y102.669
G1 F900 X102.237 Y107.328 E22.09225
G0 F3600 X101.672 Y107.328
G1 F900 X97.012 Y102.669 E22.421
G0 F3600 X96.447 Y102.669
G1 F900 X101.106 Y107.328 E22.74972
G0 F3600 X100.54 Y107.328
G1 F900 X95.914 Y102.703 E23.07607
G0 F3600 X95.914 Y103.268
G1 F900 X99.974 Y107.328 E23.36253
G0 F3600 X99.409 Y107.328
G1 F900 X95.914 Y103.834 E23.60908
G0 F3600 X95.914 Y104.4
G1 F900 X98.843 Y107.328 E23.8157
G0 F3600 X98.277 Y107.328
G1 F900 X95.914 Y104.965 E23.98242
G0 F3600 X95.914 Y105.531
G1 F900 X97.712 Y107.328 E24.10925
G0 F3600 X97.146 Y107.328
G1 F900 X95.914 Y106.097 E24.19614
G0 F3600 X95.914 Y106.662
G1 F900 X96.58 Y107.328 E24.24313
G0 F3600 X96.015 Y107.328
G1 F900 X95.914 Y107.228 E24.25022
;MESH:NONMESH
G0 F600 X95.914 Y107.228 Z0.6
G0 F3600 X95.337 Y107.9
;TIME_ELAPSED:35.802280
;LAYER:1
M140 S60
M106 S255
;TYPE:WALL-INNER
;MESH:botao_osc6.stl
G1 F1350 X95.337 Y102.1 E24.53958
G1 X104.663 Y102.1 E25.00486
G1 X104.663 Y107.9 E25.29422
G1 X95.337 Y107.9 E25.7595
G0 F5400 X94.937 Y108.3
;TYPE:WALL-OUTER
G1 F900 X94.937 Y101.7 E26.08877
G1 X105.063 Y101.7 E26.59396
G1 X105.063 Y108.3 E26.92324
G1 X94.937 Y108.3 E27.42842
G0 F5400 X94.937 Y108.1
G0 X95.727 Y107.51
;TYPE:SKIN
G1 F900 X95.727 Y102.49 E27.67887
G1 X104.273 Y102.49 E28.10523
G1 X104.273 Y107.51 E28.35568
G1 X95.727 Y107.51 E28.78204
G0 F5400 X95.907 Y103.214
G1 F900 X96.451 Y102.669 E28.82046
G0 F5400 X97.017 Y102.669
G1 F900 X95.907 Y103.779 E28.89878
G0 F5400 X95.907 Y104.345
G1 F900 X97.582 Y102.669 E29.01699
G0 F5400 X98.148 Y102.669
G1 F900 X95.907 Y104.911 E29.17514
G0 F5400 X95.907 Y105.476
G1 F900 X98.714 Y102.669 E29.37319
G0 F5400 X99.279 Y102.669
G1 F900 X95.907 Y106.042 E29.61114
G0 F5400 X95.907 Y106.608
G1 F900 X99.845 Y102.669 E29.88902
G0 F5400 X100.411 Y102.669
G1 F900 X95.907 Y107.174 E30.20684
G0 F5400 X96.317 Y107.329
G1 F900 X100.976 Y102.669 E30.53559
G0 F5400 X101.542 Y102.669
G1 F900 X96.882 Y107.329 E30.86438
G0 F5400 X97.448 Y107.329
G1 F900 X102.108 Y102.669 E31.19317
G0 F5400 X102.674 Y102.669
G1 F900 X98.014 Y107.329 E31.52196
G0 F5400 X98.579 Y107.329
G1 F900 X103.239 Y102.669 E31.85075
G0 F5400 X103.805 Y102.669
G1 F900 X99.145 Y107.329 E32.17953
G0 F5400 X99.711 Y107.329
G1 F900 X104.092 Y102.948 E32.48864
G0 F5400 X104.092 Y103.514
G1 F900 X100.276 Y107.329 E32.75784
G0 F5400 X100.842 Y107.329
G1 F900 X104.092 Y104.079 E32.98715
G0 F5400 X104.092 Y104.645
G1 F900 X101.408 Y107.329 E33.17652
G0 F5400 X101.973 Y107.329
G1 F900 X104.092 Y105.211 E33.32599
G0 F5400 X104.092 Y105.776
G1 F900 X102.539 Y107.329 E33.43556
G0 F5400 X103.105 Y107.329
G1 F900 X104.092 Y106.342 E33.5052
G0 F5400 X104.092 Y106.908
G1 F900 X103.671 Y107.329 E33.5349
;MESH:NONMESH
G0 F600 X103.671 Y107.329 Z0.9
G0 F5400 X104.472 Y107.9
;TIME_ELAPSED:48.211811
;LAYER:2
;TYPE:WALL-INNER
;MESH:botao_osc6.stl
G1 F1800 X95.328 Y107.9 E33.9911
G1 X95.328 Y102.1 E34.28046
G1 X104.671 Y102.1 E34.74659
G1 X104.672 Y107.7 E35.02597
G1 X104.672 Y107.9 E35.03595
G1 X104.472 Y107.9 E35.04241
G0 F7200 X105.072 Y108.1
;TYPE:WALL-OUTER
G1 F900 X105.072 Y108.3 E35.05239
G1 X104.872 Y108.3 E35.05885
G1 X94.928 Y108.3 E35.55496
G1 X94.928 Y101.7 E35.88423
G1 X105.071 Y101.7 E36.39027
G1 X105.072 Y108.1 E36.70957
G0 F7200 X105.072 Y108.3
G0 X104.602 Y107.83
G0 X104.282 Y107.51
;TYPE:SKIN
G1 F900 X95.718 Y107.51 E37.13683
G1 X95.718 Y102.49 E37.38727
G1 X104.281 Y102.49 E37.81448
G1 X104.282 Y107.51 E38.06493
G0 F7200 X104.1 Y102.969
G1 F900 X103.801 Y102.67 E38.08603
G0 F7200 X103.236 Y102.67
G1 F900 X104.1 Y103.535 E38.14702
G0 F7200 X104.1 Y104.1
G1 F900 X102.67 Y102.67 E38.24792
G0 F7200 X102.104 Y102.67
G1 F900 X104.101 Y104.667 E38.38882
G0 F7200 X104.101 Y105.233
G1 F900 X101.539 Y102.67 E38.56962
G0 F7200 X100.973 Y102.67
G1 F900 X104.102 Y105.799 E38.79038
G0 F7200 X104.102 Y106.365
G1 F900 X100.407 Y102.67 E39.05109
G0 F7200 X99.841 Y102.669
G1 F900 X104.102 Y106.93 E39.35172
G0 F7200 X103.934 Y107.328
G1 F900 X99.275 Y102.669 E39.68044
G0 F7200 X98.709 Y102.669
G1 F900 X103.369 Y107.328 E40.00919
G0 F7200 X102.803 Y107.328
G1 F900 X98.144 Y102.669 E40.33791
G0 F7200 X97.578 Y102.669
G1 F900 X102.237 Y107.328 E40.66663
G0 F7200 X101.672 Y107.328
G1 F900 X97.012 Y102.669 E40.99538
G0 F7200 X96.447 Y102.669
G1 F900 X101.106 Y107.328 E41.3241
G0 F7200 X100.54 Y107.328
G1 F900 X95.897 Y102.686 E41.65165
G0 F7200 X95.897 Y103.251
G1 F900 X99.974 Y107.328 E41.93931
G0 F7200 X99.409 Y107.328
G1 F900 X95.897 Y103.817 E42.18706
G0 F7200 X95.897 Y104.383
G1 F900 X98.843 Y107.328 E42.39488
G0 F7200 X98.277 Y107.328
G1 F900 X95.897 Y104.948 E42.56281
G0 F7200 X95.897 Y105.514
G1 F900 X97.712 Y107.328 E42.69083
G0 F7200 X97.146 Y107.328
G1 F900 X95.897 Y106.08 E42.77892
G0 F7200 X95.897 Y106.645
G1 F900 X96.58 Y107.328 E42.82711
G0 F7200 X96.015 Y107.328
G1 F900 X95.897 Y107.211 E42.8354
;MESH:NONMESH
G0 F600 X95.897 Y107.211 Z1.2
G0 F7200 X96.842 Y102.499
;TIME_ELAPSED:60.391935
;LAYER:3
;TYPE:FILL
;MESH:botao_osc6.stl
G1 F1581.6 X95.72 Y103.621 E42.91456
G1 X95.72 Y106.449 E43.05565
G1 X99.67 Y102.499 E43.33434
G1 X102.499 Y102.499 E43.47548
G1 X97.499 Y107.499 E43.82826
G1 X100.327 Y107.499 E43.96935
G1 X104.277 Y103.549 E44.24804
G1 X104.279 Y106.375 E44.38903
G1 X103.156 Y107.499 E44.4683
G0 F7200 X104.48 Y107.8
G0 X104.48 Y107.9
;TYPE:WALL-INNER
G1 F1581.6 X95.32 Y107.9 E44.9253
G1 X95.32 Y102.1 E45.21466
G1 X104.679 Y102.1 E45.68158
G1 X104.68 Y107.7 E45.96097
G1 X104.68 Y107.9 E45.97094
G1 X104.48 Y107.9 E45.9774
G0 F7200 X104.88 Y108.3
;TYPE:WALL-OUTER
G1 F790.8 X94.92 Y108.3 E46.47431
G1 X94.92 Y101.909 E46.79316
G1 X94.921 Y101.7 E46.80359
G1 X105.079 Y101.7 E47.31037
G1 X105.08 Y108.1 E47.62967
G1 X105.08 Y108.3 E47.63965
