;FLAVOR:Marlin
;TIME:411
;Filament used: 0.296405m
;Layer height: 0.3
;MINX:89.19
;MINY:96.753
;MINZ:0.3
;MAXX:110.811
;MAXY:113.247
;MAXZ:18
;Generated with Cura_SteamEngine 4.6.2
M140 S55
M105
M190 S55
M104 S215
M105
M109 S215
M82 ;absolute extrusion mode
G21; metric values
G90 ;absolute positioning
M82 ;set extruder to absolute mode
M107 ;start with the fan off
G28 X0 Y0 ;move X/Y to min endstops
G28 Z0 ;move Z to min endstops
G29
G1 X-14 Y0 F6000
G1 Z0.1
G92 E0 ;zero the extruded length
G1 F2000 E10 ;extrude 10mm of feed stock
G92 E0 ;zero the extruded length again
G1 Z0.2 F6000
G1 F6000
M117 Printing...
G92 E0
G92 E0
;LAYER_COUNT:60
;LAYER:0
M107
G0 F3600 X95.933 Y98.015 Z0.3
;TYPE:SKIRT
G1 F900 X98.726 Y98.094 E0.1394
G1 X101.456 Y98.094 E0.2756
G1 X105.054 Y97.977 E0.4552
G1 X106.055 Y97.953 E0.50515
G1 X106.952 Y98.004 E0.54998
G1 X107.441 Y98.13 E0.57517
G1 X107.905 Y98.331 E0.6004
G1 X108.331 Y98.604 E0.62564
G1 X108.709 Y98.939 E0.65084
G1 X109.029 Y99.331 E0.67609
G1 X109.284 Y99.767 E0.70129
G1 X109.467 Y100.239 E0.72654
G1 X109.573 Y100.733 E0.75175
G1 X109.609 Y101.383 E0.78423
G1 X109.611 Y108.103 E1.11949
G1 X109.602 Y108.883 E1.15841
G1 X109.556 Y109.386 E1.1836
G1 X109.431 Y109.876 E1.20883
G1 X109.231 Y110.34 E1.23404
G1 X108.96 Y110.767 E1.25927
G1 X108.625 Y111.146 E1.28451
G1 X108.234 Y111.467 E1.30975
G1 X107.798 Y111.723 E1.33497
G1 X107.327 Y111.907 E1.3602
G1 X106.833 Y112.015 E1.38543
G1 X106.209 Y112.051 E1.41661
G1 X105.479 Y112.044 E1.45303
G1 X104.067 Y111.985 E1.52354
G1 X101.274 Y111.906 E1.66294
G1 X98.545 Y111.906 E1.79909
G1 X94.948 Y112.023 E1.97864
G1 X93.944 Y112.047 E2.02874
G1 X93.059 Y111.999 E2.07296
G1 X92.569 Y111.875 E2.09818
G1 X92.105 Y111.675 E2.12339
G1 X91.678 Y111.405 E2.14859
G1 X91.298 Y111.07 E2.17386
G1 X90.977 Y110.68 E2.19906
G1 X90.72 Y110.244 E2.22431
G1 X90.536 Y109.774 E2.24949
G1 X90.428 Y109.28 E2.27472
G1 X90.39 Y108.598 E2.3088
G1 X90.39 Y101.82 E2.64696
G1 X90.4 Y101.108 E2.68248
G1 X90.448 Y100.604 E2.70774
G1 X90.574 Y100.115 E2.73293
G1 X90.776 Y99.651 E2.75818
G1 X91.048 Y99.225 E2.7834
G1 X91.384 Y98.847 E2.80863
G1 X91.775 Y98.527 E2.83384
G1 X92.212 Y98.273 E2.85905
G1 X92.683 Y98.09 E2.88426
G1 X93.178 Y97.984 E2.90952
G1 X93.783 Y97.949 E2.93975
G1 X94.521 Y97.956 E2.97657
G1 X95.933 Y98.015 E3.04708
G0 F3600 X95.957 Y97.615
G1 F900 X98.738 Y97.694 E3.18588
G1 X101.443 Y97.694 E3.32083
G1 X105.041 Y97.577 E3.50043
G1 X106.046 Y97.553 E3.55059
G1 X106.988 Y97.604 E3.59765
G1 X107.51 Y97.731 E3.62445
G1 X108.006 Y97.934 E3.65119
G1 X108.467 Y98.208 E3.67795
G1 X108.882 Y98.547 E3.70468
G1 X109.242 Y98.945 E3.73146
G1 X109.539 Y99.392 E3.75823
G1 X109.766 Y99.877 E3.78495
G1 X109.919 Y100.391 E3.8117
G1 X110 Y101.054 E3.84503
G1 X110.011 Y108.102 E4.19665
G1 X110.002 Y108.888 E4.23587
G1 X109.955 Y109.422 E4.26261
G1 X109.83 Y109.943 E4.28934
G1 X109.629 Y110.44 E4.31609
G1 X109.356 Y110.902 E4.34286
G1 X109.017 Y111.318 E4.36963
G1 X108.621 Y111.679 E4.39637
G1 X108.175 Y111.977 E4.42313
G1 X107.69 Y112.206 E4.44989
G1 X107.176 Y112.36 E4.47666
G1 X106.504 Y112.443 E4.51044
G1 X105.474 Y112.444 E4.56183
G1 X104.043 Y112.385 E4.63328
G1 X101.262 Y112.306 E4.77208
G1 X98.558 Y112.306 E4.90698
G1 X94.961 Y112.423 E5.08653
G1 X93.954 Y112.447 E5.13679
G1 X93.024 Y112.399 E5.18325
G1 X92.502 Y112.274 E5.21002
G1 X92.005 Y112.073 E5.23677
G1 X91.543 Y111.801 E5.26352
G1 X91.127 Y111.463 E5.29026
G1 X90.765 Y111.067 E5.31703
G1 X90.467 Y110.621 E5.34379
G1 X90.238 Y110.136 E5.37055
G1 X90.083 Y109.623 E5.39728
G1 X89.999 Y108.942 E5.43152
G1 X89.99 Y101.819 E5.78688
G1 X90 Y101.102 E5.82266
G1 X90.048 Y100.568 E5.84941
G1 X90.175 Y100.047 E5.87616
G1 X90.378 Y99.55 E5.90295
G1 X90.652 Y99.089 E5.9297
G1 X90.992 Y98.674 E5.95647
G1 X91.39 Y98.314 E5.98324
G1 X91.836 Y98.018 E6.00995
G1 X92.322 Y97.79 E6.03673
G1 X92.836 Y97.638 E6.06347
G1 X93.496 Y97.558 E6.09664
G1 X94.527 Y97.556 E6.14808
G1 X95.957 Y97.615 E6.21948
G0 F3600 X95.986 Y97.217
G1 F900 X98.713 Y97.294 E6.35558
G1 X101.43 Y97.294 E6.49114
G1 X105.028 Y97.177 E6.67074
G1 X106.036 Y97.153 E6.72104
G1 X107.024 Y97.205 E6.7704
G1 X107.574 Y97.332 E6.79856
G1 X108.102 Y97.536 E6.8268
G1 X108.595 Y97.812 E6.85499
G1 X109.045 Y98.154 E6.88319
G1 X109.442 Y98.557 E6.91141
G1 X109.778 Y99.012 E6.93963
G1 X110.046 Y99.509 E6.9678
G1 X110.242 Y100.039 E6.99599
G1 X110.361 Y100.592 E7.02421
G1 X110.408 Y101.361 E7.06265
G1 X110.411 Y108.102 E7.39896
G1 X110.402 Y108.893 E7.43842
G1 X110.355 Y109.456 E7.46661
G1 X110.229 Y110.007 E7.49481
G1 X110.027 Y110.535 E7.52301
G1 X109.752 Y111.029 E7.55122
G1 X109.411 Y111.48 E7.57943
G1 X109.009 Y111.878 E7.60765
G1 X108.555 Y112.215 E7.63586
G1 X108.059 Y112.485 E7.66403
G1 X107.529 Y112.682 E7.69224
G1 X106.977 Y112.803 E7.72044
G1 X106.232 Y112.85 E7.75768
G1 X105.468 Y112.844 E7.7958
G1 X104.014 Y112.783 E7.8684
G1 X101.287 Y112.706 E8.0045
G1 X98.571 Y112.706 E8.14001
G1 X94.974 Y112.823 E8.31956
G1 X93.963 Y112.847 E8.37001
G1 X92.99 Y112.799 E8.41861
G1 X92.439 Y112.673 E8.44681
G1 X91.911 Y112.472 E8.475
G1 X91.416 Y112.198 E8.50322
G1 X90.966 Y111.857 E8.53139
G1 X90.567 Y111.455 E8.55965
G1 X90.229 Y111.002 E8.58785
G1 X89.959 Y110.506 E8.61602
G1 X89.761 Y109.976 E8.64425
G1 X89.64 Y109.424 E8.67244
G1 X89.59 Y108.62 E8.71263
G1 X89.59 Y101.819 E9.05193
G1 X89.6 Y101.096 E9.08801
G1 X89.649 Y100.533 E9.1162
G1 X89.776 Y99.982 E9.14441
G1 X89.98 Y99.454 E9.17265
G1 X90.256 Y98.961 E9.20084
G1 X90.599 Y98.512 E9.22903
G1 X91.002 Y98.115 E9.25725
G1 X91.456 Y97.779 E9.28543
G1 X91.954 Y97.51 E9.31367
G1 X92.484 Y97.315 E9.34184
G1 X93.037 Y97.196 E9.37007
G1 X93.76 Y97.15 E9.40621
G1 X94.532 Y97.156 E9.44473
G1 X95.986 Y97.217 E9.51733
G0 F3600 X96.015 Y96.817
G1 F900 X98.724 Y96.894 E9.65254
G1 X101.417 Y96.894 E9.78689
G1 X105.015 Y96.777 E9.96649
G1 X106.027 Y96.753 E10.01699
G1 X107.057 Y96.805 E10.06845
G1 X107.636 Y96.933 E10.09803
G1 X108.193 Y97.137 E10.12762
G1 X108.717 Y97.415 E10.15722
G1 X109.199 Y97.76 E10.18679
G1 X109.63 Y98.167 E10.21636
G1 X110.003 Y98.628 E10.24595
G1 X110.31 Y99.136 E10.27556
G1 X110.546 Y99.68 E10.30515
G1 X110.707 Y100.25 E10.3347
G1 X110.799 Y101.032 E10.37398
G1 X110.811 Y108.102 E10.7267
G1 X110.802 Y108.897 E10.76637
G1 X110.755 Y109.489 E10.796
G1 X110.628 Y110.068 E10.82557
G1 X110.425 Y110.625 E10.85515
G1 X110.149 Y111.15 E10.88474
G1 X109.805 Y111.633 E10.91432
G1 X109.399 Y112.065 E10.9439
G1 X108.939 Y112.439 E10.97348
G1 X108.433 Y112.747 E11.00303
G1 X107.889 Y112.985 E11.03265
G1 X107.319 Y113.147 E11.06222
G1 X106.526 Y113.242 E11.10206
G1 X105.463 Y113.244 E11.1551
G1 X103.985 Y113.183 E11.2289
G1 X101.276 Y113.106 E11.3641
G1 X98.584 Y113.106 E11.49841
G1 X94.987 Y113.223 E11.67796
G1 X93.973 Y113.247 E11.72856
G1 X92.958 Y113.198 E11.77926
G1 X92.379 Y113.073 E11.80881
G1 X91.821 Y112.87 E11.83844
G1 X91.296 Y112.595 E11.868
G1 X90.813 Y112.251 E11.89759
G1 X90.38 Y111.846 E11.92717
G1 X90.006 Y111.386 E11.95674
G1 X89.697 Y110.88 E11.98632
G1 X89.459 Y110.337 E12.0159
G1 X89.296 Y109.767 E12.04548
G1 X89.2 Y108.964 E12.08583
G1 X89.19 Y101.819 E12.44229
G1 X89.2 Y101.09 E12.47867
G1 X89.249 Y100.499 E12.50825
G1 X89.377 Y99.92 E12.53784
G1 X89.582 Y99.363 E12.56745
G1 X89.859 Y98.839 E12.59702
G1 X90.205 Y98.357 E12.62662
G1 X90.612 Y97.926 E12.65619
G1 X91.073 Y97.554 E12.68575
G1 X91.581 Y97.247 E12.71536
G1 X92.125 Y97.011 E12.74494
G1 X92.695 Y96.85 E12.77449
G1 X93.473 Y96.758 E12.81358
G1 X94.537 Y96.756 E12.86666
G1 X96.015 Y96.817 E12.94046
G0 F3600 X93.983 Y101.346
;TYPE:SUPPORT
G1 F900 X93.965 Y101.364 E12.94173
G1 X93.965 Y108.636 E13.30453
G1 X93.983 Y108.654 E13.3058
G1 X93.789 Y108.654 E13.31548
G1 X93.79 Y101.346 E13.68008
G1 X93.983 Y101.346 E13.68971
G0 F3600 X94.708 Y100.959
G0 X105.291 Y100.959
G0 X106.016 Y101.346
G1 F900 X106.21 Y101.346 E13.69939
G1 X106.211 Y108.654 E14.06399
G1 X106.017 Y108.654 E14.07366
G1 X106.035 Y108.636 E14.07493
G1 X106.034 Y101.364 E14.43774
G1 X106.016 Y101.346 E14.43901
;MESH:botao_osc2.stl
G0 F3600 X104.52 Y102.234
G0 X103.935 Y107.38
;TYPE:WALL-INNER
G1 F900 X95.865 Y107.38 E14.84162
G1 X95.865 Y102.62 E15.0791
G1 X104.134 Y102.62 E15.49164
G1 X104.135 Y107.18 E15.71914
G1 X104.135 Y107.38 E15.72912
G1 X103.935 Y107.38 E15.73558
G0 F3600 X104.335 Y107.78
G1 F900 X95.465 Y107.78 E16.1781
G1 X95.465 Y102.22 E16.45549
G1 X104.534 Y102.22 E16.90795
G1 X104.535 Y107.58 E17.17536
G1 X104.535 Y107.78 E17.18534
G1 X104.335 Y107.78 E17.1918
G0 F3600 X104.735 Y108.18
;TYPE:WALL-OUTER
G1 F900 X95.065 Y108.18 E17.67424
G1 X95.065 Y101.82 E17.99154
G1 X104.934 Y101.82 E18.4839
G1 X104.935 Y107.98 E18.79123
G1 X104.935 Y108.18 E18.80121
G1 X104.735 Y108.18 E18.80767
G0 F3600 X104.535 Y108.18
G0 X104.465 Y107.71
G0 X103.745 Y106.99
;TYPE:SKIN
G1 F900 X96.255 Y106.99 E19.18134
G1 X96.255 Y103.01 E19.37991
G1 X103.744 Y103.01 E19.75353
G1 X103.745 Y106.99 E19.9521
G0 F3600 X103.19 Y103.19
G1 F900 X103.564 Y103.564 E19.97849
G0 F3600 X103.564 Y104.129
G1 F900 X102.624 Y103.19 E20.04477
G0 F3600 X102.058 Y103.19
G1 F900 X103.564 Y104.695 E20.15099
G0 F3600 X103.564 Y105.262
G1 F900 X101.493 Y103.19 E20.29715
G0 F3600 X100.927 Y103.19
G1 F900 X103.564 Y105.827 E20.4832
G0 F3600 X103.564 Y106.393
G1 F900 X100.361 Y103.19 E20.70919
G0 F3600 X99.796 Y103.19
G1 F900 X103.415 Y106.809 E20.96453
G0 F3600 X102.849 Y106.809
G1 F900 X99.23 Y103.19 E21.21987
G0 F3600 X98.664 Y103.19
G1 F900 X102.283 Y106.809 E21.47521
G0 F3600 X101.718 Y106.809
G1 F900 X98.099 Y103.19 E21.73055
G0 F3600 X97.533 Y103.19
G1 F900 X101.152 Y106.809 E21.98589
G0 F3600 X100.586 Y106.809
G1 F900 X96.967 Y103.19 E22.24123
G0 F3600 X96.434 Y103.222
G1 F900 X100.02 Y106.809 E22.49428
G0 F3600 X99.455 Y106.809
G1 F900 X96.434 Y103.788 E22.70743
G0 F3600 X96.434 Y104.354
G1 F900 X98.889 Y106.809 E22.88064
G0 F3600 X98.323 Y106.809
G1 F900 X96.434 Y104.919 E23.01396
G0 F3600 X96.434 Y105.485
G1 F900 X97.758 Y106.809 E23.10737
G0 F3600 X97.192 Y106.809
G1 F900 X96.434 Y106.051 E23.16085
G0 F3600 X96.434 Y106.616
G1 F900 X96.626 Y106.809 E23.17443
;MESH:NONMESH
G0 F600 X96.626 Y106.809 Z0.6
G0 F3600 X95.479 Y102.234
G0 X93.79 Y101.346
;TIME_ELAPSED:34.520053
;LAYER:1
M140 S55
M106 S255
;TYPE:SUPPORT
G1 F1350 X93.789 Y107.743 E23.49358
G1 X93.789 Y108.654 E23.53903
G1 X93.975 Y108.654 E23.54831
G1 X93.957 Y108.636 E23.54958
G1 X93.957 Y101.364 E23.91238
G1 X93.975 Y101.346 E23.91365
G1 X93.79 Y101.346 E23.92288
G0 F5400 X94.7 Y100.959
G0 X105.3 Y100.959
G0 X106.025 Y101.346
G1 F1350 X106.043 Y101.364 E23.92415
G1 X106.043 Y108.636 E24.28695
G1 X106.025 Y108.654 E24.28822
G1 X106.211 Y108.654 E24.2975
G1 X106.21 Y101.346 E24.6621
G1 X106.025 Y101.346 E24.67133
;MESH:botao_osc2.stl
G0 F5400 X104.529 Y102.234
G0 X95.857 Y107.38
;TYPE:WALL-INNER
G1 F1350 X95.857 Y102.62 E24.90881
G1 X104.143 Y102.62 E25.3222
G1 X104.143 Y107.38 E25.55968
G1 X95.857 Y107.38 E25.97307
G0 F5400 X95.457 Y107.78
G1 F1350 X95.457 Y102.22 E26.25046
G1 X104.543 Y102.22 E26.70376
G1 X104.543 Y107.78 E26.98115
G1 X95.457 Y107.78 E27.43445
G0 F5400 X95.057 Y108.18
;TYPE:WALL-OUTER
G1 F900 X95.057 Y101.82 E27.75175
G1 X104.943 Y101.82 E28.24497
G1 X104.943 Y108.18 E28.56227
G1 X95.057 Y108.18 E29.05548
G0 F5400 X95.057 Y107.98
G0 X95.527 Y107.71
G0 X96.247 Y106.99
;TYPE:SKIN
G1 F900 X96.247 Y103.01 E29.25404
G1 X103.753 Y103.01 E29.62852
G1 X103.753 Y106.99 E29.82708
G1 X96.247 Y106.99 E30.20156
G0 F5400 X96.427 Y103.259
G1 F900 X96.497 Y103.189 E30.2065
G0 F5400 X97.063 Y103.189
G1 F900 X96.427 Y103.825 E30.25137
G0 F5400 X96.427 Y104.39
G1 F900 X97.628 Y103.189 E30.33611
G0 F5400 X98.194 Y103.189
G1 F900 X96.427 Y104.956 E30.46078
G0 F5400 X96.427 Y105.522
G1 F900 X98.76 Y103.189 E30.62539
G0 F5400 X99.325 Y103.189
G1 F900 X96.427 Y106.087 E30.82986
G0 F5400 X96.427 Y106.653
G1 F900 X99.891 Y103.189 E31.07426
G0 F5400 X100.457 Y103.189
G1 F900 X96.837 Y106.809 E31.32967
G0 F5400 X97.403 Y106.809
G1 F900 X101.022 Y103.189 E31.58505
G0 F5400 X101.588 Y103.189
G1 F900 X97.968 Y106.809 E31.84046
G0 F5400 X98.534 Y106.809
G1 F900 X102.154 Y103.189 E32.09587
G0 F5400 X102.719 Y103.189
G1 F900 X99.1 Y106.809 E32.35124
G0 F5400 X99.665 Y106.809
G1 F900 X103.285 Y103.189 E32.60665
G0 F5400 X103.572 Y103.468
G1 F900 X100.231 Y106.809 E32.84238
G0 F5400 X100.797 Y106.809
G1 F900 X103.572 Y104.034 E33.03817
G0 F5400 X103.572 Y104.6
G1 F900 X101.363 Y106.809 E33.19403
G0 F5400 X101.928 Y106.809
G1 F900 X103.572 Y105.165 E33.31002
G0 F5400 X103.572 Y105.73
G1 F900 X102.494 Y106.809 E33.38611
G0 F5400 X103.06 Y106.809
G1 F900 X103.572 Y106.296 E33.42227
;MESH:NONMESH
G0 F600 X103.572 Y106.296 Z0.9
G0 F5400 X95.471 Y102.234
G0 X93.79 Y101.346
;TIME_ELAPSED:47.387510
;LAYER:2
;TYPE:SUPPORT
G1 F1800 X93.789 Y107.743 E33.74142
G1 X93.789 Y108.654 E33.78687
G1 X93.966 Y108.654 E33.7957
G1 X93.948 Y108.636 E33.79697
G1 X93.948 Y101.364 E34.15977
G1 X93.966 Y101.346 E34.16104
G1 X93.79 Y101.346 E34.16982
G0 F7200 X94.691 Y100.959
G0 X105.308 Y100.959
G0 X106.033 Y101.346
G1 F1800 X106.051 Y101.364 E34.17109
G1 X106.052 Y108.636 E34.53389
G1 X106.034 Y108.654 E34.53516
G1 X106.211 Y108.654 E34.544
G1 X106.21 Y101.346 E34.90859
G1 X106.033 Y101.346 E34.91742
;MESH:botao_osc2.stl
G0 F7200 X104.537 Y102.234
G0 X103.952 Y107.38
;TYPE:WALL-INNER
G1 F1800 X95.848 Y107.38 E35.32173
G1 X95.848 Y102.62 E35.55921
G1 X104.151 Y102.62 E35.97345
G1 X104.152 Y107.18 E36.20095
G1 X104.152 Y107.38 E36.21093
G1 X103.952 Y107.38 E36.21739
G0 F7200 X104.352 Y107.78
G1 F1800 X95.448 Y107.78 E36.66161
G1 X95.448 Y102.22 E36.939
G1 X104.551 Y102.22 E37.39315
G1 X104.552 Y107.58 E37.66056
G1 X104.552 Y107.78 E37.67054
G1 X104.352 Y107.78 E37.677
G0 F7200 X104.752 Y108.18
;TYPE:WALL-OUTER
G1 F900 X95.048 Y108.18 E38.16113
G1 X95.048 Y101.82 E38.47844
G1 X104.951 Y101.82 E38.9725
G1 X104.952 Y107.98 E39.27982
G1 X104.952 Y108.18 E39.2898
G1 X104.752 Y108.18 E39.29626
G0 F7200 X104.552 Y108.18
G0 X104.482 Y107.71
G0 X103.762 Y106.99
;TYPE:SKIN
G1 F900 X96.238 Y106.99 E39.67164
G1 X96.238 Y103.01 E39.8702
G1 X103.761 Y103.01 E40.24552
G1 X103.762 Y106.99 E40.44409
G0 F7200 X103.19 Y103.19
G1 F900 X103.581 Y103.581 E40.47167
G0 F7200 X103.581 Y104.146
G1 F900 X102.624 Y103.19 E40.53916
G0 F7200 X102.058 Y103.19
G1 F900 X103.581 Y104.712 E40.64658
G0 F7200 X103.581 Y105.279
G1 F900 X101.493 Y103.19 E40.79393
G0 F7200 X100.927 Y103.19
G1 F900 X103.581 Y105.844 E40.98119
G0 F7200 X103.581 Y106.41
G1 F900 X100.361 Y103.19 E41.20838
G0 F7200 X99.796 Y103.19
G1 F900 X103.415 Y106.809 E41.46372
G0 F7200 X102.849 Y106.809
G1 F900 X99.23 Y103.19 E41.71906
G0 F7200 X98.664 Y103.19
G1 F900 X102.283 Y106.809 E41.9744
G0 F7200 X101.718 Y106.809
G1 F900 X98.099 Y103.19 E42.22974
G0 F7200 X97.533 Y103.19
G1 F900 X101.152 Y106.809 E42.48508
G0 F7200 X100.586 Y106.809
G1 F900 X96.967 Y103.19 E42.74042
G0 F7200 X96.417 Y103.205
G1 F900 X100.02 Y106.809 E42.99466
G0 F7200 X99.455 Y106.809
G1 F900 X96.417 Y103.771 E43.20901
G0 F7200 X96.417 Y104.337
G1 F900 X98.889 Y106.809 E43.38342
G0 F7200 X98.323 Y106.809
G1 F900 X96.417 Y104.902 E43.51794
G0 F7200 X96.417 Y105.468
G1 F900 X97.758 Y106.809 E43.61255
G0 F7200 X97.192 Y106.809
G1 F900 X96.417 Y106.034 E43.66723
G0 F7200 X96.417 Y106.599
G1 F900 X96.626 Y106.809 E43.68201
;MESH:NONMESH
G0 F600 X96.626 Y106.809 Z1.2
G0 F7200 X95.462 Y102.234
G0 X93.79 Y101.346
;TIME_ELAPSED:59.257345
;LAYER:3
;TYPE:SUPPORT
G1 F1800 X93.789 Y107.743 E44.00116
G1 X93.789 Y108.654 E44.04661
