;FLAVOR:Marlin
;TIME:384
;Filament used: 0.268857m
;Layer height: 0.3
;MINX:90.065
;MINY:96.82
;MINZ:0.3
;MAXX:109.935
;MAXY:113.18
;MAXZ:18
;Generated with Cura_SteamEngine 4.6.2
M140 S55
M105
M190 S55
M104 S215
M105
M109 S215
M82 ;absolute extrusion mode
G21; metric values
G90 ;absolute positioning
M82 ;set extruder to absolute mode
M107 ;start with the fan off
G28 X0 Y0 ;move X/Y to min endstops
G28 Z0 ;move Z to min endstops
G29
G1 X-14 Y0 F6000
G1 Z0.1
G92 E0 ;zero the extruded length
G1 F2000 E10 ;extrude 10mm of feed stock
G92 E0 ;zero the extruded length again
G1 Z0.2 F6000
G1 F6000
M117 Printing...
G92 E0
G92 E0
;LAYER_COUNT:60
;LAYER:0
M107
G0 F3600 X105.674 Y98.477 Z0.3
;TYPE:SKIRT
G1 F900 X106.164 Y98.603 E0.02524
G1 X106.628 Y98.805 E0.05049
G1 X107.054 Y99.077 E0.07571
G1 X107.432 Y99.412 E0.1009
G1 X107.752 Y99.803 E0.12611
G1 X108.007 Y100.24 E0.15135
G1 X108.19 Y100.711 E0.17656
G1 X108.297 Y101.205 E0.20178
G1 X108.333 Y101.861 E0.23456
G1 X108.335 Y107.628 E0.52227
G1 X108.325 Y108.408 E0.56119
G1 X108.278 Y108.912 E0.58645
G1 X108.152 Y109.402 E0.61169
G1 X107.951 Y109.865 E0.63687
G1 X107.68 Y110.292 E0.6621
G1 X107.344 Y110.67 E0.68733
G1 X106.954 Y110.991 E0.71253
G1 X106.517 Y111.246 E0.73777
G1 X106.046 Y111.43 E0.763
G1 X105.552 Y111.536 E0.78821
G1 X104.945 Y111.576 E0.81856
G1 X95.572 Y111.58 E1.28618
G1 X94.833 Y111.571 E1.32305
G1 X94.329 Y111.524 E1.3483
G1 X93.839 Y111.399 E1.37353
G1 X93.375 Y111.198 E1.39876
G1 X92.949 Y110.927 E1.42395
G1 X92.57 Y110.592 E1.44919
G1 X92.249 Y110.201 E1.47443
G1 X91.994 Y109.765 E1.49962
G1 X91.81 Y109.294 E1.52485
G1 X91.703 Y108.8 E1.55007
G1 X91.666 Y108.124 E1.58385
G1 X91.665 Y102.246 E1.8771
G1 X91.675 Y101.581 E1.91028
G1 X91.723 Y101.078 E1.93549
G1 X91.849 Y100.588 E1.96073
G1 X92.051 Y100.124 E1.98598
G1 X92.323 Y99.698 E2.0112
G1 X92.659 Y99.321 E2.03639
G1 X93.05 Y99 E2.06163
G1 X93.487 Y98.746 E2.08685
G1 X93.958 Y98.563 E2.11206
G1 X94.453 Y98.457 E2.13731
G1 X95.105 Y98.421 E2.16989
G1 X104.473 Y98.42 E2.63726
G1 X105.171 Y98.43 E2.67209
G1 X105.674 Y98.477 E2.69729
G0 F3600 X105.711 Y98.078
G1 F900 X106.232 Y98.204 E2.72403
G1 X106.729 Y98.407 E2.75082
G1 X107.19 Y98.681 E2.77757
G1 X107.605 Y99.02 E2.80431
G1 X107.965 Y99.418 E2.83108
G1 X108.262 Y99.864 E2.85781
G1 X108.49 Y100.35 E2.8846
G1 X108.642 Y100.864 E2.91134
G1 X108.724 Y101.529 E2.94477
G1 X108.735 Y107.628 E3.24905
G1 X108.725 Y108.414 E3.28826
G1 X108.677 Y108.948 E3.31501
G1 X108.551 Y109.469 E3.34175
G1 X108.349 Y109.966 E3.36852
G1 X108.076 Y110.427 E3.39525
G1 X107.737 Y110.843 E3.42202
G1 X107.34 Y111.203 E3.44876
G1 X106.893 Y111.501 E3.47556
G1 X106.408 Y111.729 E3.5023
G1 X105.894 Y111.882 E3.52905
G1 X105.282 Y111.962 E3.55985
G1 X95.572 Y111.98 E4.04428
G1 X94.828 Y111.971 E4.0814
G1 X94.293 Y111.924 E4.1082
G1 X93.772 Y111.798 E4.13494
G1 X93.275 Y111.596 E4.1617
G1 X92.814 Y111.323 E4.18843
G1 X92.398 Y110.984 E4.21521
G1 X92.037 Y110.588 E4.24194
G1 X91.739 Y110.142 E4.2687
G1 X91.511 Y109.656 E4.29548
G1 X91.358 Y109.142 E4.32224
G1 X91.275 Y108.468 E4.35612
G1 X91.265 Y102.24 E4.66684
G1 X91.275 Y101.575 E4.70002
G1 X91.323 Y101.041 E4.72677
G1 X91.45 Y100.52 E4.75352
G1 X91.653 Y100.023 E4.7803
G1 X91.927 Y99.562 E4.80706
G1 X92.267 Y99.147 E4.83382
G1 X92.665 Y98.788 E4.86056
G1 X93.111 Y98.491 E4.8873
G1 X93.597 Y98.263 E4.91408
G1 X94.111 Y98.111 E4.94082
G1 X94.774 Y98.03 E4.97414
G1 X104.479 Y98.02 E5.45833
G1 X105.177 Y98.03 E5.49316
G1 X105.711 Y98.078 E5.51991
G0 F3600 X105.746 Y97.678
G1 F900 X106.296 Y97.805 E5.54807
G1 X106.824 Y98.009 E5.57631
G1 X107.318 Y98.284 E5.60451
G1 X107.767 Y98.627 E5.6327
G1 X108.164 Y99.029 E5.66089
G1 X108.501 Y99.484 E5.68914
G1 X108.769 Y99.981 E5.71731
G1 X108.965 Y100.511 E5.7455
G1 X109.085 Y101.064 E5.77373
G1 X109.132 Y101.839 E5.81247
G1 X109.135 Y107.628 E6.10128
G1 X109.125 Y108.419 E6.14075
G1 X109.077 Y108.983 E6.16899
G1 X108.95 Y109.534 E6.1972
G1 X108.748 Y110.061 E6.22536
G1 X108.472 Y110.555 E6.25359
G1 X108.13 Y111.005 E6.28179
G1 X107.728 Y111.402 E6.30997
G1 X107.274 Y111.739 E6.33818
G1 X106.776 Y112.008 E6.36642
G1 X106.246 Y112.205 E6.39463
G1 X105.694 Y112.324 E6.4228
G1 X104.98 Y112.375 E6.45851
G1 X95.572 Y112.38 E6.92788
G1 X94.822 Y112.371 E6.9653
G1 X94.259 Y112.323 E6.99349
G1 X93.708 Y112.197 E7.02169
G1 X93.18 Y111.995 E7.04989
G1 X92.686 Y111.72 E7.0781
G1 X92.236 Y111.378 E7.1063
G1 X91.838 Y110.976 E7.13452
G1 X91.502 Y110.522 E7.1627
G1 X91.232 Y110.025 E7.19092
G1 X91.035 Y109.495 E7.21913
G1 X90.915 Y108.943 E7.24731
G1 X90.866 Y108.146 E7.28715
G1 X90.865 Y102.234 E7.5821
G1 X90.875 Y101.569 E7.61528
G1 X90.924 Y101.006 E7.64348
G1 X91.051 Y100.455 E7.67169
G1 X91.255 Y99.927 E7.69993
G1 X91.531 Y99.434 E7.72811
G1 X91.874 Y98.985 E7.7563
G1 X92.277 Y98.588 E7.78453
G1 X92.731 Y98.252 E7.8127
G1 X93.229 Y97.983 E7.84094
G1 X93.759 Y97.788 E7.86912
G1 X94.312 Y97.669 E7.89734
G1 X95.083 Y97.622 E7.93587
G1 X104.484 Y97.62 E8.40489
G1 X105.182 Y97.63 E8.43972
G1 X105.746 Y97.678 E8.46796
G0 F3600 X105.779 Y97.279
G1 F900 X106.358 Y97.406 E8.49753
G1 X106.915 Y97.61 E8.52713
G1 X107.439 Y97.888 E8.55672
G1 X107.921 Y98.233 E8.58629
G1 X108.353 Y98.64 E8.6159
G1 X108.725 Y99.101 E8.64546
G1 X109.033 Y99.608 E8.67505
G1 X109.269 Y100.152 E8.70464
G1 X109.43 Y100.722 E8.73419
G1 X109.523 Y101.507 E8.77362
G1 X109.535 Y107.628 E9.079
G1 X109.525 Y108.425 E9.11877
G1 X109.477 Y109.016 E9.14835
G1 X109.35 Y109.595 E9.17792
G1 X109.146 Y110.152 E9.20752
G1 X108.869 Y110.676 E9.23709
G1 X108.524 Y111.159 E9.2667
G1 X108.118 Y111.59 E9.29624
G1 X107.657 Y111.963 E9.32583
G1 X107.15 Y112.271 E9.35542
G1 X106.607 Y112.508 E9.38498
G1 X106.036 Y112.67 E9.41459
G1 X105.317 Y112.761 E9.45075
G1 X104.805 Y112.779 E9.47631
G1 X95.572 Y112.78 E9.93695
G1 X94.817 Y112.771 E9.97462
G1 X94.226 Y112.723 E10.0042
G1 X93.647 Y112.596 E10.03377
G1 X93.09 Y112.393 E10.06335
G1 X92.565 Y112.117 E10.09294
G1 X92.083 Y111.772 E10.12251
G1 X91.651 Y111.366 E10.15209
G1 X91.277 Y110.905 E10.1817
G1 X90.969 Y110.399 E10.21126
G1 X90.732 Y109.855 E10.24086
G1 X90.57 Y109.285 E10.27043
G1 X90.476 Y108.49 E10.31036
G1 X90.465 Y102.228 E10.62278
G1 X90.475 Y101.563 E10.65596
G1 X90.524 Y100.972 E10.68554
G1 X90.652 Y100.393 E10.71513
G1 X90.857 Y99.836 E10.74474
G1 X91.134 Y99.312 E10.77431
G1 X91.48 Y98.83 E10.80391
G1 X91.887 Y98.399 E10.83349
G1 X92.348 Y98.027 E10.86304
G1 X92.856 Y97.72 E10.89265
G1 X93.399 Y97.484 E10.92219
G1 X93.97 Y97.323 E10.95179
G1 X94.751 Y97.231 E10.99102
G1 X104.49 Y97.22 E11.4769
G1 X105.188 Y97.23 E11.51173
G1 X105.779 Y97.279 E11.54132
G0 F3600 X105.811 Y96.879
G1 F900 X106.417 Y97.007 E11.57222
G1 X107.002 Y97.212 E11.60314
G1 X107.555 Y97.491 E11.63405
G1 X108.068 Y97.838 E11.66494
G1 X108.532 Y98.248 E11.69584
G1 X108.939 Y98.715 E11.72674
G1 X109.282 Y99.23 E11.75761
G1 X109.557 Y99.786 E11.78856
G1 X109.757 Y100.372 E11.81945
G1 X109.881 Y100.979 E11.85036
G1 X109.923 Y101.495 E11.87619
G1 X109.935 Y107.628 E12.18216
G1 X109.925 Y108.43 E12.22218
G1 X109.876 Y109.048 E12.25311
G1 X109.749 Y109.654 E12.284
G1 X109.544 Y110.238 E12.31488
G1 X109.266 Y110.792 E12.3458
G1 X108.919 Y111.305 E12.3767
G1 X108.509 Y111.769 E12.40759
G1 X108.043 Y112.176 E12.43846
G1 X107.528 Y112.52 E12.46936
G1 X106.973 Y112.795 E12.50026
G1 X106.387 Y112.996 E12.53117
G1 X105.78 Y113.12 E12.56208
G1 X105.015 Y113.174 E12.60034
G1 X95.573 Y113.18 E13.0714
G1 X94.812 Y113.171 E13.10937
G1 X94.195 Y113.123 E13.14024
G1 X93.588 Y112.996 E13.17118
G1 X93.004 Y112.792 E13.20205
G1 X92.45 Y112.514 E13.23297
G1 X91.937 Y112.167 E13.26387
G1 X91.472 Y111.758 E13.29476
G1 X91.065 Y111.291 E13.32567
G1 X90.72 Y110.777 E13.35655
G1 X90.445 Y110.222 E13.38746
G1 X90.244 Y109.636 E13.41836
G1 X90.119 Y109.029 E13.44928
G1 X90.076 Y108.501 E13.47571
G1 X90.065 Y102.294 E13.78538
G1 X90.076 Y101.557 E13.82215
G1 X90.125 Y100.939 E13.85308
G1 X90.253 Y100.334 E13.88393
G1 X90.458 Y99.749 E13.91486
G1 X90.737 Y99.196 E13.94576
G1 X91.085 Y98.684 E13.97665
G1 X91.496 Y98.22 E14.00757
G1 X91.963 Y97.813 E14.03848
G1 X92.478 Y97.47 E14.06935
G1 X93.034 Y97.196 E14.10027
G1 X93.62 Y96.996 E14.13116
G1 X94.227 Y96.873 E14.16206
G1 X94.74 Y96.831 E14.18774
G1 X104.496 Y96.82 E14.67447
G1 X105.194 Y96.83 E14.7093
G1 X105.811 Y96.879 E14.74018
;MESH:botao_osc.stl
G0 F3600 X104.52 Y100.955
G0 X104.52 Y102.234
G0 X103.935 Y107.38
;TYPE:WALL-INNER
G1 F900 X95.865 Y107.38 E15.14279
G1 X95.865 Y102.62 E15.38027
G1 X104.134 Y102.62 E15.79281
G1 X104.135 Y107.18 E16.02031
G1 X104.135 Y107.38 E16.03029
G1 X103.935 Y107.38 E16.03675
G0 F3600 X104.335 Y107.78
G1 F900 X95.465 Y107.78 E16.47927
G1 X95.465 Y102.22 E16.75666
G1 X104.534 Y102.22 E17.20912
G1 X104.535 Y107.58 E17.47653
G1 X104.535 Y107.78 E17.48651
G1 X104.335 Y107.78 E17.49297
G0 F3600 X104.735 Y108.18
;TYPE:WALL-OUTER
G1 F900 X95.065 Y108.18 E17.97541
G1 X95.065 Y101.82 E18.29271
G1 X104.934 Y101.82 E18.78507
G1 X104.935 Y107.98 E19.0924
G1 X104.935 Y108.18 E19.10238
G1 X104.735 Y108.18 E19.10884
G0 F3600 X104.535 Y108.18
G0 X104.465 Y107.71
G0 X103.745 Y106.99
;TYPE:SKIN
G1 F900 X96.255 Y106.99 E19.48251
G1 X96.255 Y103.01 E19.68108
G1 X103.744 Y103.01 E20.05471
G1 X103.745 Y106.99 E20.25327
G0 F3600 X103.19 Y103.19
G1 F900 X103.564 Y103.564 E20.27966
G0 F3600 X103.564 Y104.129
G1 F900 X102.624 Y103.19 E20.34594
G0 F3600 X102.058 Y103.19
G1 F900 X103.564 Y104.695 E20.45216
G0 F3600 X103.564 Y105.262
G1 F900 X101.493 Y103.19 E20.59832
G0 F3600 X100.927 Y103.19
G1 F900 X103.564 Y105.827 E20.78437
G0 F3600 X103.564 Y106.393
G1 F900 X100.361 Y103.19 E21.01036
G0 F3600 X99.796 Y103.19
G1 F900 X103.415 Y106.809 E21.2657
G0 F3600 X102.849 Y106.809
G1 F900 X99.23 Y103.19 E21.52104
G0 F3600 X98.664 Y103.19
G1 F900 X102.283 Y106.809 E21.77638
G0 F3600 X101.718 Y106.809
G1 F900 X98.099 Y103.19 E22.03172
G0 F3600 X97.533 Y103.19
G1 F900 X101.152 Y106.809 E22.28706
G0 F3600 X100.586 Y106.809
G1 F900 X96.967 Y103.19 E22.5424
G0 F3600 X96.434 Y103.222
G1 F900 X100.02 Y106.809 E22.79545
G0 F3600 X99.455 Y106.809
G1 F900 X96.434 Y103.788 E23.0086
G0 F3600 X96.434 Y104.354
G1 F900 X98.889 Y106.809 E23.18181
G0 F3600 X98.323 Y106.809
G1 F900 X96.434 Y104.919 E23.31513
G0 F3600 X96.434 Y105.485
G1 F900 X97.758 Y106.809 E23.40854
G0 F3600 X97.192 Y106.809
G1 F900 X96.434 Y106.051 E23.46202
G0 F3600 X96.434 Y106.616
G1 F900 X96.626 Y106.809 E23.4756
;MESH:NONMESH
G0 F600 X96.626 Y106.809 Z0.6
G0 F3600 X95.857 Y107.38
;TIME_ELAPSED:34.707280
;LAYER:1
M140 S55
M106 S255
;TYPE:WALL-INNER
;MESH:botao_osc.stl
G1 F1350 X95.857 Y102.62 E23.71308
G1 X104.143 Y102.62 E24.12647
G1 X104.143 Y107.38 E24.36395
G1 X95.857 Y107.38 E24.77734
G0 F5400 X95.457 Y107.78
G1 F1350 X95.457 Y102.22 E25.05473
G1 X104.543 Y102.22 E25.50803
G1 X104.543 Y107.78 E25.78542
G1 X95.457 Y107.78 E26.23872
G0 F5400 X95.057 Y108.18
;TYPE:WALL-OUTER
G1 F900 X95.057 Y101.82 E26.55602
G1 X104.943 Y101.82 E27.04924
G1 X104.943 Y108.18 E27.36654
G1 X95.057 Y108.18 E27.85976
G0 F5400 X95.057 Y107.98
G0 X95.527 Y107.71
G0 X96.247 Y106.99
;TYPE:SKIN
G1 F900 X96.247 Y103.01 E28.05832
G1 X103.753 Y103.01 E28.43279
G1 X103.753 Y106.99 E28.63136
G1 X96.247 Y106.99 E29.00583
G0 F5400 X96.427 Y103.259
G1 F900 X96.497 Y103.189 E29.01077
G0 F5400 X97.063 Y103.189
G1 F900 X96.427 Y103.825 E29.05565
G0 F5400 X96.427 Y104.39
G1 F900 X97.628 Y103.189 E29.14038
G0 F5400 X98.194 Y103.189
G1 F900 X96.427 Y104.956 E29.26505
G0 F5400 X96.427 Y105.522
G1 F900 X98.76 Y103.189 E29.42966
G0 F5400 X99.325 Y103.189
G1 F900 X96.427 Y106.087 E29.63413
G0 F5400 X96.427 Y106.653
G1 F900 X99.891 Y103.189 E29.87853
G0 F5400 X100.457 Y103.189
G1 F900 X96.837 Y106.809 E30.13394
G0 F5400 X97.403 Y106.809
G1 F900 X101.022 Y103.189 E30.38932
G0 F5400 X101.588 Y103.189
G1 F900 X97.968 Y106.809 E30.64473
G0 F5400 X98.534 Y106.809
G1 F900 X102.154 Y103.189 E30.90014
G0 F5400 X102.719 Y103.189
G1 F900 X99.1 Y106.809 E31.15552
G0 F5400 X99.665 Y106.809
G1 F900 X103.285 Y103.189 E31.41093
G0 F5400 X103.572 Y103.468
G1 F900 X100.231 Y106.809 E31.64665
G0 F5400 X100.797 Y106.809
G1 F900 X103.572 Y104.034 E31.84244
G0 F5400 X103.572 Y104.6
G1 F900 X101.363 Y106.809 E31.9983
G0 F5400 X101.928 Y106.809
G1 F900 X103.572 Y105.165 E32.11429
G0 F5400 X103.572 Y105.73
G1 F900 X102.494 Y106.809 E32.19039
G0 F5400 X103.06 Y106.809
G1 F900 X103.572 Y106.296 E32.22655
;MESH:NONMESH
G0 F600 X103.572 Y106.296 Z0.9
G0 F5400 X103.952 Y107.38
;TIME_ELAPSED:45.809019
;LAYER:2
;TYPE:WALL-INNER
;MESH:botao_osc.stl
G1 F1800 X95.848 Y107.38 E32.63086
G1 X95.848 Y102.62 E32.86833
G1 X104.151 Y102.62 E33.28257
G1 X104.152 Y107.18 E33.51007
G1 X104.152 Y107.38 E33.52005
G1 X103.952 Y107.38 E33.52651
G0 F7200 X104.352 Y107.78
G1 F1800 X95.448 Y107.78 E33.97073
G1 X95.448 Y102.22 E34.24812
G1 X104.551 Y102.22 E34.70227
G1 X104.552 Y107.58 E34.96968
G1 X104.552 Y107.78 E34.97966
G1 X104.352 Y107.78 E34.98612
G0 F7200 X104.752 Y108.18
;TYPE:WALL-OUTER
G1 F900 X95.048 Y108.18 E35.47026
G1 X95.048 Y101.82 E35.78756
G1 X104.951 Y101.82 E36.28162
G1 X104.952 Y107.98 E36.58895
G1 X104.952 Y108.18 E36.59892
G1 X104.752 Y108.18 E36.60538
G0 F7200 X104.552 Y108.18
G0 X104.482 Y107.71
G0 X103.762 Y106.99
;TYPE:SKIN
G1 F900 X96.238 Y106.99 E36.98076
G1 X96.238 Y103.01 E37.17932
G1 X103.761 Y103.01 E37.55465
G1 X103.762 Y106.99 E37.75321
G0 F7200 X103.19 Y103.19
G1 F900 X103.581 Y103.581 E37.7808
G0 F7200 X103.581 Y104.146
G1 F900 X102.624 Y103.19 E37.84828
G0 F7200 X102.058 Y103.19
G1 F900 X103.581 Y104.712 E37.9557
G0 F7200 X103.581 Y105.279
G1 F900 X101.493 Y103.19 E38.10306
G0 F7200 X100.927 Y103.19
G1 F900 X103.581 Y105.844 E38.29031
G0 F7200 X103.581 Y106.41
G1 F900 X100.361 Y103.19 E38.5175
G0 F7200 X99.796 Y103.19
G1 F900 X103.415 Y106.809 E38.77284
G0 F7200 X102.849 Y106.809
G1 F900 X99.23 Y103.19 E39.02818
G0 F7200 X98.664 Y103.19
G1 F900 X102.283 Y106.809 E39.28352
G0 F7200 X101.718 Y106.809
G1 F900 X98.099 Y103.19 E39.53886
G0 F7200 X97.533 Y103.19
G1 F900 X101.152 Y106.809 E39.7942
G0 F7200 X100.586 Y106.809
G1 F900 X96.967 Y103.19 E40.04954
G0 F7200 X96.417 Y103.205
G1 F900 X100.02 Y106.809 E40.30379
G0 F7200 X99.455 Y106.809
G1 F900 X96.417 Y103.771 E40.51813
G0 F7200 X96.417 Y104.337
G1 F900 X98.889 Y106.809 E40.69255
G0 F7200 X98.323 Y106.809
G1 F900 X96.417 Y104.902 E40.82706
G0 F7200 X96.417 Y105.468
G1 F900 X97.758 Y106.809 E40.92168
G0 F7200 X97.192 Y106.809
G1 F900 X96.417 Y106.034 E40.97636
G0 F7200 X96.417 Y106.599
G1 F900 X96.626 Y106.809 E40.99114
;MESH:NONMESH
G0 F600 X96.626 Y106.809 Z1.2
G0 F7200 X103.96 Y107.38
;TIME_ELAPSED:56.409317
;LAYER:3
;TYPE:WALL-INNER
;MESH:botao_osc.stl
G1 F1800 X95.84 Y107.38 E41.39625
G1 X95.84 Y102.62 E41.63372
G1 X104.159 Y102.62 E42.04876
G1 X104.16 Y107.18 E42.27626
G1 X104.16 Y107.38 E42.28624
G1 X103.96 Y107.38 E42.2927
G0 F7200 X104.36 Y107.78
G1 F1800 X95.44 Y107.78 E42.73772
G1 X95.44 Y102.22 E43.01511
G1 X104.559 Y102.22 E43.47006
G1 X104.56 Y107.58 E43.73747
G1 X104.56 Y107.78 E43.74745
G1 X104.36 Y107.78 E43.75391
G0 F7200 X104.96 Y107.98
;TYPE:WALL-OUTER
G1 F900 X104.96 Y108.18 E43.76388
G1 X104.76 Y108.18 E43.77035
G1 X95.04 Y108.18 E44.25528
G1 X95.04 Y101.82 E44.57258
G1 X104.959 Y101.82 E45.06744
G1 X104.96 Y107.98 E45.37476
G0 F7200 X104.96 Y108.18
G0 X104.49 Y107.71
G0 X103.77 Y106.99
;TYPE:SKIN
G1 F900 X96.23 Y106.99 E45.75094
G1 X96.23 Y103.01 E45.9495
G1 X103.769 Y103.01 E46.32562
G1 X103.77 Y106.99 E46.52419
G0 F7200 X103.06 Y106.809
