;FLAVOR:Marlin
;TIME:9767
;Filament used: 6.53768m
;Layer height: 0.2
;MINX:68.55
;MINY:2.8
;MINZ:0.2
;MAXX:131.45
;MAXY:207.2
;MAXZ:1.4
;Generated with Cura_SteamEngine 4.2.1
M140 S50
M105
M190 S50
M104 S215
M105
M109 S215
M82 ;absolute extrusion mode
G21
G90        ;absolute positioning
M82        ;set extruder to absolute mode
M107       ;start with the fan off
G28 X0 Y0  ;move X/Y to min endstops
G28 Z0     ;move Z to min endstops
G29
G1 X-14 Y0 F6000
G1 Z0.1
G92 E0                  ;zero the extruded length
G1 F2000 E10              ;extrude 10mm of feed stock
G92 E0                  ;zero the extruded length again
G1 Z0.2 F6000
G1 F6000
M117 Printing...
M141 S28
G92 E0
G92 E0
G1 F1500 E-12
;LAYER_COUNT:7
;LAYER:0
M107
G0 F5400 X68.559 Y5.966 Z0.2
;TYPE:SKIRT
G1 F1500 E0
G1 F1200 X68.606 Y5.462 E0.01684
G1 X68.732 Y4.973 E0.03363
G1 X68.933 Y4.509 E0.05045
G1 X69.204 Y4.082 E0.06727
G1 X69.539 Y3.704 E0.08407
G1 X69.93 Y3.383 E0.1009
G1 X70.367 Y3.128 E0.11772
G1 X70.838 Y2.944 E0.13454
G1 X71.332 Y2.838 E0.15135
G1 X71.669 Y2.81 E0.16259
G1 X71.99 Y2.801 E0.17327
G1 X72.08 Y2.8 E0.17627
G1 X127.589 Y2.8 E2.02251
G1 X128.287 Y2.81 E2.04572
G1 X128.79 Y2.857 E2.06253
G1 X129.28 Y2.983 E2.07935
G1 X129.744 Y3.185 E2.09619
G1 X130.17 Y3.457 E2.113
G1 X130.548 Y3.792 E2.1298
G1 X130.868 Y4.183 E2.1466
G1 X131.123 Y4.62 E2.16343
G1 X131.306 Y5.091 E2.18023
G1 X131.413 Y5.585 E2.19705
G1 X131.44 Y5.92 E2.20822
G1 X131.449 Y6.24 E2.21887
G1 X131.45 Y6.33 E2.22187
G1 X131.45 Y203.304 E8.77325
G1 X131.441 Y204.031 E8.79743
G1 X131.395 Y204.534 E8.81423
G1 X131.27 Y205.024 E8.83105
G1 X131.069 Y205.488 E8.84787
G1 X130.798 Y205.915 E8.86469
G1 X130.463 Y206.294 E8.88151
G1 X130.073 Y206.615 E8.89831
G1 X129.637 Y206.871 E8.91513
G1 X129.166 Y207.054 E8.93193
G1 X128.672 Y207.162 E8.94875
G1 X128.331 Y207.19 E8.96013
G1 X128.01 Y207.199 E8.97081
G1 X127.92 Y207.2 E8.97381
G1 X72.416 Y207.2 E10.81988
G1 X71.718 Y207.191 E10.8431
G1 X71.214 Y207.144 E10.85993
G1 X70.724 Y207.019 E10.87675
G1 X70.26 Y206.818 E10.89357
G1 X69.834 Y206.547 E10.91036
G1 X69.455 Y206.212 E10.92719
G1 X69.134 Y205.821 E10.94401
G1 X68.879 Y205.385 E10.96081
G1 X68.695 Y204.914 E10.97763
G1 X68.588 Y204.42 E10.99444
G1 X68.56 Y204.077 E11.00589
G1 X68.551 Y203.744 E11.01697
G1 X68.55 Y203.658 E11.01983
G1 X68.55 Y6.631 E17.57297
G1 X68.559 Y5.966 E17.59509
G1 F1500 E5.59509
;MESH:potenciometros_final2_tampa_inferior.stl
G0 F5400 X71.085 Y6.614
G0 X72.364 Y6.614
G0 X72.75 Y203
;TYPE:WALL-INNER
G1 F1500 E17.59509
G1 F1200 X72.75 Y7 E24.11408
G1 X127.25 Y7 E25.92676
G1 X127.25 Y203 E32.44574
G1 X72.75 Y203 E34.25842
G0 F5400 X72.35 Y203.4
G1 F1200 X72.35 Y6.6 E40.80401
G1 X127.65 Y6.6 E42.6433
G1 X127.65 Y203.4 E49.18889
G1 X72.35 Y203.4 E51.02818
G0 F5400 X71.95 Y203.8
;TYPE:WALL-OUTER
G1 F1200 X71.95 Y6.2 E57.60038
G1 X128.05 Y6.2 E59.46628
G1 X128.05 Y203.8 E66.03848
G1 X71.95 Y203.8 E67.90437
G0 F5400 X71.95 Y203.6
G0 X72.42 Y203.33
G0 X73.14 Y202.61
;TYPE:SKIN
G1 F1200 X73.14 Y7.39 E74.39742
G1 X126.86 Y7.39 E76.18415
G1 X126.86 Y202.61 E82.67719
G1 X73.14 Y202.61 E84.46393
G0 F5400 X73.452 Y202.429
G1 F1200 X73.319 Y202.295 E84.47021
G0 F5400 X73.319 Y201.729
G1 F1200 X74.018 Y202.429 E84.50311
G0 F5400 X74.584 Y202.429
G1 F1200 X73.319 Y201.164 E84.56261
G0 F5400 X73.319 Y200.598
G1 F1200 X75.149 Y202.429 E84.64871
G0 F5400 X75.715 Y202.429
G1 F1200 X73.319 Y200.032 E84.76144
G0 F5400 X73.319 Y199.467
G1 F1200 X76.281 Y202.429 E84.90076
G0 F5400 X76.846 Y202.429
G1 F1200 X73.319 Y198.901 E85.06668
G0 F5400 X73.319 Y198.335
G1 F1200 X77.412 Y202.429 E85.25923
G0 F5400 X77.978 Y202.429
G1 F1200 X73.319 Y197.769 E85.4784
G0 F5400 X73.319 Y197.204
G1 F1200 X78.544 Y202.429 E85.72417
G0 F5400 X79.109 Y202.429
G1 F1200 X73.319 Y196.638 E85.99653
G0 F5400 X73.319 Y196.072
G1 F1200 X79.675 Y202.429 E86.29552
G0 F5400 X80.241 Y202.429
G1 F1200 X73.319 Y195.507 E86.62111
G0 F5400 X73.319 Y194.941
G1 F1200 X80.806 Y202.429 E86.9733
G0 F5400 X81.372 Y202.429
G1 F1200 X73.319 Y194.375 E87.35211
G0 F5400 X73.319 Y193.81
G1 F1200 X81.938 Y202.429 E87.75753
G0 F5400 X82.503 Y202.429
G1 F1200 X73.319 Y193.244 E88.18954
G0 F5400 X73.319 Y192.678
G1 F1200 X83.069 Y202.429 E88.64817
G0 F5400 X83.635 Y202.429
G1 F1200 X73.319 Y192.113 E89.1334
G0 F5400 X73.319 Y191.547
G1 F1200 X84.2 Y202.429 E89.64524
G0 F5400 X84.766 Y202.429
G1 F1200 X73.319 Y190.981 E90.18369
G0 F5400 X73.319 Y190.416
G1 F1200 X85.332 Y202.429 E90.74875
G0 F5400 X85.897 Y202.429
G1 F1200 X73.319 Y189.85 E91.3404
G0 F5400 X73.319 Y189.284
G1 F1200 X86.463 Y202.429 E91.95868
G0 F5400 X87.029 Y202.429
G1 F1200 X73.319 Y188.719 E92.60355
G0 F5400 X73.319 Y188.153
G1 F1200 X87.594 Y202.429 E93.27503
G0 F5400 X88.16 Y202.429
G1 F1200 X73.319 Y187.587 E93.97313
G0 F5400 X73.319 Y187.021
G1 F1200 X88.726 Y202.429 E94.69785
G0 F5400 X89.292 Y202.429
G1 F1200 X73.319 Y186.456 E95.44917
G0 F5400 X73.319 Y185.89
G1 F1200 X89.857 Y202.429 E96.22709
G0 F5400 X90.423 Y202.429
G1 F1200 X73.319 Y185.324 E97.03163
G0 F5400 X73.319 Y184.759
G1 F1200 X90.989 Y202.429 E97.86278
G0 F5400 X91.554 Y202.429
G1 F1200 X73.319 Y184.193 E98.72052
G0 F5400 X73.319 Y183.627
G1 F1200 X92.12 Y202.429 E99.60488
G0 F5400 X92.686 Y202.429
G1 F1200 X73.319 Y183.062 E100.51585
G0 F5400 X73.319 Y182.496
G1 F1200 X93.251 Y202.429 E101.45341
G0 F5400 X93.817 Y202.429
G1 F1200 X73.319 Y181.93 E102.4176
G0 F5400 X73.319 Y181.365
G1 F1200 X94.383 Y202.429 E103.40838
G0 F5400 X94.948 Y202.429
G1 F1200 X73.319 Y180.799 E104.42577
G0 F5400 X73.319 Y180.233
G1 F1200 X95.514 Y202.429 E105.46978
G0 F5400 X96.08 Y202.429
G1 F1200 X73.319 Y179.668 E106.54038
G0 F5400 X73.319 Y179.102
G1 F1200 X96.645 Y202.429 E107.63759
G0 F5400 X97.211 Y202.429
G1 F1200 X73.319 Y178.536 E108.76142
G0 F5400 X73.319 Y177.97
G1 F1200 X97.777 Y202.429 E109.91187
G0 F5400 X98.342 Y202.429
G1 F1200 X73.319 Y177.405 E111.0889
G0 F5400 X73.319 Y176.839
G1 F1200 X98.908 Y202.429 E112.29255
G0 F5400 X99.474 Y202.429
G1 F1200 X73.319 Y176.273 E113.52283
G0 F5400 X73.319 Y175.708
G1 F1200 X100.04 Y202.429 E114.7797
G0 F5400 X100.605 Y202.429
G1 F1200 X73.319 Y175.142 E116.06318
G0 F5400 X73.319 Y174.576
G1 F1200 X101.171 Y202.429 E117.37327
G0 F5400 X101.737 Y202.429
G1 F1200 X73.319 Y174.011 E118.70997
G0 F5400 X73.319 Y173.445
G1 F1200 X102.302 Y202.429 E120.07326
G0 F5400 X102.868 Y202.429
G1 F1200 X73.319 Y172.879 E121.46318
G0 F5400 X73.319 Y172.314
G1 F1200 X103.434 Y202.429 E122.8797
G0 F5400 X103.999 Y202.429
G1 F1200 X73.319 Y171.748 E124.32282
G0 F5400 X73.319 Y171.182
G1 F1200 X104.565 Y202.429 E125.79255
G0 F5400 X105.131 Y202.429
G1 F1200 X73.319 Y170.617 E127.28889
G0 F5400 X73.319 Y170.051
G1 F1200 X105.696 Y202.429 E128.81183
G0 F5400 X106.262 Y202.429
G1 F1200 X73.319 Y169.485 E130.36139
G0 F5400 X73.319 Y168.92
G1 F1200 X106.828 Y202.429 E131.93755
G0 F5400 X107.393 Y202.429
G1 F1200 X73.319 Y168.354 E133.54031
G0 F5400 X73.319 Y167.788
G1 F1200 X107.959 Y202.429 E135.1697
G0 F5400 X108.525 Y202.429
G1 F1200 X73.319 Y167.222 E136.8257
G0 F5400 X73.319 Y166.657
G1 F1200 X109.091 Y202.429 E138.50831
G0 F5400 X109.656 Y202.429
G1 F1200 X73.319 Y166.091 E140.21751
G0 F5400 X73.319 Y165.525
G1 F1200 X110.222 Y202.429 E141.95334
G0 F5400 X110.788 Y202.429
G1 F1200 X73.319 Y164.96 E143.71577
G0 F5400 X73.319 Y164.394
G1 F1200 X111.353 Y202.429 E145.50479
G0 F5400 X111.919 Y202.429
G1 F1200 X73.319 Y163.828 E147.32044
G0 F5400 X73.319 Y163.263
G1 F1200 X112.485 Y202.429 E149.16269
G0 F5400 X113.05 Y202.429
G1 F1200 X73.319 Y162.697 E151.03154
G0 F5400 X73.319 Y162.131
G1 F1200 X113.616 Y202.429 E152.92701
G0 F5400 X114.182 Y202.429
G1 F1200 X73.319 Y161.566 E154.84908
G0 F5400 X73.319 Y161
G1 F1200 X114.747 Y202.429 E156.79775
G0 F5400 X115.313 Y202.429
G1 F1200 X73.319 Y160.434 E158.77304
G0 F5400 X73.319 Y159.869
G1 F1200 X115.879 Y202.429 E160.77493
G0 F5400 X116.444 Y202.429
G1 F1200 X73.319 Y159.303 E162.80343
G0 F5400 X73.319 Y158.737
G1 F1200 X117.01 Y202.429 E164.85854
G0 F5400 X117.576 Y202.429
G1 F1200 X73.319 Y158.172 E166.94025
G0 F5400 X73.319 Y157.606
G1 F1200 X118.141 Y202.429 E169.04857
G0 F5400 X118.707 Y202.429
G1 F1200 X73.319 Y157.04 E171.1835
G0 F5400 X73.319 Y156.474
G1 F1200 X119.273 Y202.429 E173.34506
G0 F5400 X119.839 Y202.429
G1 F1200 X73.319 Y155.909 E175.53322
G0 F5400 X73.319 Y155.343
G1 F1200 X120.404 Y202.429 E177.74798
G0 F5400 X120.97 Y202.429
G1 F1200 X73.319 Y154.777 E179.98936
G0 F5400 X73.319 Y154.212
G1 F1200 X121.536 Y202.429 E182.25734
G0 F5400 X122.101 Y202.429
G1 F1200 X73.319 Y153.646 E184.55192
G0 F5400 X73.319 Y153.08
G1 F1200 X122.667 Y202.429 E186.87312
G0 F5400 X123.233 Y202.429
G1 F1200 X73.319 Y152.515 E189.22092
G0 F5400 X73.319 Y151.949
G1 F1200 X123.798 Y202.429 E191.59532
G0 F5400 X124.364 Y202.429
G1 F1200 X73.319 Y151.383 E193.99634
G0 F5400 X73.319 Y150.818
G1 F1200 X124.93 Y202.429 E196.42397
G0 F5400 X125.495 Y202.429
G1 F1200 X73.319 Y150.252 E198.87819
G0 F5400 X73.319 Y149.686
G1 F1200 X126.061 Y202.429 E201.35904
G0 F5400 X126.627 Y202.429
G1 F1200 X73.319 Y149.121 E203.86648
G0 F5400 X73.319 Y148.555
G1 F1200 X126.679 Y201.915 E206.37637
G0 F5400 X126.679 Y201.35
G1 F1200 X73.319 Y147.989 E208.88629
G0 F5400 X73.319 Y147.423
G1 F1200 X126.679 Y200.784 E211.3962
G0 F5400 X126.679 Y200.218
G1 F1200 X73.319 Y146.858 E213.90609
G0 F5400 X73.319 Y146.292
G1 F1200 X126.679 Y199.653 E216.41601
G0 F5400 X126.679 Y199.087
G1 F1200 X73.319 Y145.726 E218.92592
G0 F5400 X73.319 Y145.161
G1 F1200 X126.679 Y198.521 E221.43581
G0 F5400 X126.679 Y197.955
G1 F1200 X73.319 Y144.595 E223.9457
G0 F5400 X73.319 Y144.029
G1 F1200 X126.679 Y197.39 E226.45562
G0 F5400 X126.679 Y196.824
G1 F1200 X73.319 Y143.464 E228.96551
G0 F5400 X73.319 Y142.898
G1 F1200 X126.679 Y196.258 E231.4754
G0 F5400 X126.679 Y195.693
G1 F1200 X73.319 Y142.332 E233.98531
G0 F5400 X73.319 Y141.767
G1 F1200 X126.679 Y195.127 E236.4952
G0 F5400 X126.679 Y194.561
G1 F1200 X73.319 Y141.201 E239.00509
G0 F5400 X73.319 Y140.635
G1 F1200 X126.679 Y193.996 E241.51501
G0 F5400 X126.679 Y193.43
G1 F1200 X73.319 Y140.07 E244.0249
G0 F5400 X73.319 Y139.504
G1 F1200 X126.679 Y192.864 E246.53479
G0 F5400 X126.679 Y192.299
G1 F1200 X73.319 Y138.938 E249.0447
G0 F5400 X73.319 Y138.373
G1 F1200 X126.679 Y191.733 E251.55459
G0 F5400 X126.679 Y191.167
G1 F1200 X73.319 Y137.807 E254.06448
G0 F5400 X73.319 Y137.241
G1 F1200 X126.679 Y190.602 E256.5744
G0 F5400 X126.679 Y190.036
G1 F1200 X73.319 Y136.675 E259.08431
G0 F5400 X73.319 Y136.11
G1 F1200 X126.679 Y189.47 E261.5942
G0 F5400 X126.679 Y188.904
G1 F1200 X73.319 Y135.544 E264.10409
G0 F5400 X73.319 Y134.978
G1 F1200 X126.679 Y188.339 E266.61401
G0 F5400 X126.679 Y187.773
G1 F1200 X73.319 Y134.413 E269.1239
G0 F5400 X73.319 Y133.847
G1 F1200 X126.679 Y187.207 E271.63379
G0 F5400 X126.679 Y186.642
G1 F1200 X73.319 Y133.281 E274.14371
G0 F5400 X73.319 Y132.716
G1 F1200 X126.679 Y186.076 E276.6536
G0 F5400 X126.679 Y185.51
G1 F1200 X73.319 Y132.15 E279.16349
G0 F5400 X73.319 Y131.584
G1 F1200 X126.679 Y184.945 E281.6734
G0 F5400 X126.679 Y184.379
G1 F1200 X73.319 Y131.019 E284.18329
G0 F5400 X73.319 Y130.453
G1 F1200 X126.679 Y183.813 E286.69318
G0 F5400 X126.679 Y183.248
G1 F1200 X73.319 Y129.887 E289.2031
G0 F5400 X73.319 Y129.322
G1 F1200 X126.679 Y182.682 E291.71299
G0 F5400 X126.679 Y182.116
G1 F1200 X73.319 Y128.756 E294.22288
G0 F5400 X73.319 Y128.19
G1 F1200 X126.679 Y181.551 E296.73279
G0 F5400 X126.679 Y180.985
G1 F1200 X73.319 Y127.624 E299.24271
G0 F5400 X73.319 Y127.059
G1 F1200 X126.679 Y180.419 E301.7526
G0 F5400 X126.679 Y179.854
G1 F1200 X73.319 Y126.493 E304.26251
G0 F5400 X73.319 Y125.927
G1 F1200 X126.679 Y179.288 E306.77243
G0 F5400 X126.679 Y178.722
G1 F1200 X73.319 Y125.362 E309.28232
G0 F5400 X73.319 Y124.796
G1 F1200 X126.679 Y178.156 E311.79221
G0 F5400 X126.679 Y177.591
G1 F1200 X73.319 Y124.23 E314.30212
G0 F5400 X73.319 Y123.665
G1 F1200 X126.679 Y177.025 E316.81201
G0 F5400 X126.679 Y176.459
G1 F1200 X73.319 Y123.099 E319.3219
G0 F5400 X73.319 Y122.533
G1 F1200 X126.679 Y175.894 E321.83182
G0 F5400 X126.679 Y175.328
G1 F1200 X73.319 Y121.968 E324.34171
G0 F5400 X73.319 Y121.402
G1 F1200 X126.679 Y174.762 E326.8516
G0 F5400 X126.679 Y174.197
G1 F1200 X73.319 Y120.836 E329.36151
G0 F5400 X73.319 Y120.271
G1 F1200 X126.679 Y173.631 E331.87141
G0 F5400 X126.679 Y173.065
G1 F1200 X73.319 Y119.705 E334.3813
G0 F5400 X73.319 Y119.139
G1 F1200 X126.679 Y172.5 E336.89121
G0 F5400 X126.679 Y171.934
G1 F1200 X73.319 Y118.574 E339.4011
G0 F5400 X73.319 Y118.008
G1 F1200 X126.679 Y171.368 E341.91099
G0 F5400 X126.679 Y170.803
G1 F1200 X73.319 Y117.442 E344.42091
G0 F5400 X73.319 Y116.876
G1 F1200 X126.679 Y170.237 E346.93082
G0 F5400 X126.679 Y169.671
G1 F1200 X73.319 Y116.311 E349.44071
G0 F5400 X73.319 Y115.745
G1 F1200 X126.679 Y169.106 E351.95063
G0 F5400 X126.679 Y168.54
G1 F1200 X73.319 Y115.179 E354.46054
G0 F5400 X73.319 Y114.614
G1 F1200 X126.679 Y167.974 E356.97043
G0 F5400 X126.679 Y167.408
G1 F1200 X73.319 Y114.048 E359.48032
G0 F5400 X73.319 Y113.482
G1 F1200 X126.679 Y166.843 E361.99024
G0 F5400 X126.679 Y166.277
G1 F1200 X73.319 Y112.917 E364.50013
G0 F5400 X73.319 Y112.351
G1 F1200 X126.679 Y165.711 E367.01002
G0 F5400 X126.679 Y165.146
G1 F1200 X73.319 Y111.785 E369.51993
G0 F5400 X73.319 Y111.22
G1 F1200 X126.679 Y164.58 E372.02982
G0 F5400 X126.679 Y164.014
G1 F1200 X73.319 Y110.654 E374.53971
G0 F5400 X73.319 Y110.088
G1 F1200 X126.679 Y163.449 E377.04963
G0 F5400 X126.679 Y162.883
G1 F1200 X73.319 Y109.523 E379.55952
G0 F5400 X73.319 Y108.957
G1 F1200 X126.679 Y162.317 E382.06941
G0 F5400 X126.679 Y161.752
G1 F1200 X73.319 Y108.391 E384.57932
G0 F5400 X73.319 Y107.826
G1 F1200 X126.679 Y161.186 E387.08921
G0 F5400 X126.679 Y160.62
G1 F1200 X73.319 Y107.26 E389.59911
G0 F5400 X73.319 Y106.694
G1 F1200 X126.679 Y160.055 E392.10902
G0 F5400 X126.679 Y159.489
G1 F1200 X73.319 Y106.128 E394.61893
G0 F5400 X73.319 Y105.563
G1 F1200 X126.679 Y158.923 E397.12882
G0 F5400 X126.679 Y158.357
G1 F1200 X73.319 Y104.997 E399.63872
G0 F5400 X73.319 Y104.431
G1 F1200 X126.679 Y157.792 E402.14863
G0 F5400 X126.679 Y157.226
G1 F1200 X73.319 Y103.866 E404.65852
G0 F5400 X73.319 Y103.3
G1 F1200 X126.679 Y156.66 E407.16841
G0 F5400 X126.679 Y156.095
G1 F1200 X73.319 Y102.734 E409.67833
G0 F5400 X73.319 Y102.169
G1 F1200 X126.679 Y155.529 E412.18822
G0 F5400 X126.679 Y154.963
G1 F1200 X73.319 Y101.603 E414.69811
G0 F5400 X73.319 Y101.037
G1 F1200 X126.679 Y154.398 E417.20802
G0 F5400 X126.679 Y153.832
G1 F1200 X73.319 Y100.472 E419.71791
G0 F5400 X73.319 Y99.906
G1 F1200 X126.679 Y153.266 E422.2278
G0 F5400 X126.679 Y152.701
G1 F1200 X73.319 Y99.34 E424.73772
G0 F5400 X73.319 Y98.775
G1 F1200 X126.679 Y152.135 E427.24761
G0 F5400 X126.679 Y151.569
G1 F1200 X73.319 Y98.209 E429.7575
G0 F5400 X73.319 Y97.643
G1 F1200 X126.679 Y151.004 E432.26741
G0 F5400 X126.679 Y150.438
G1 F1200 X73.319 Y97.077 E434.77733
G0 F5400 X73.319 Y96.512
G1 F1200 X126.679 Y149.872 E437.28722
G0 F5400 X126.679 Y149.307
G1 F1200 X73.319 Y95.946 E439.79713
G0 F5400 X73.319 Y95.38
G1 F1200 X126.679 Y148.741 E442.30705
G0 F5400 X126.679 Y148.175
G1 F1200 X73.319 Y94.815 E444.81694
G0 F5400 X73.319 Y94.249
G1 F1200 X126.679 Y147.609 E447.32683
G0 F5400 X126.679 Y147.044
G1 F1200 X73.319 Y93.683 E449.83674
G0 F5400 X73.319 Y93.118
G1 F1200 X126.679 Y146.478 E452.34663
G0 F5400 X126.679 Y145.912
G1 F1200 X73.319 Y92.552 E454.85652
G0 F5400 X73.319 Y91.986
G1 F1200 X126.679 Y145.347 E457.36644
